!!!!SEGMENT: pl-sa--272-a-vii-32_kobierkowicz-jozef--justus-ut-palma-florebit.krn
!!!cenid: 17xx:320
!!!COM: Kobierkowicz, Józef
!!!COM-rismid: pe30017725
!!!CDT: <1721->=1735
!!!CNT: Polish
!!!OTL: Justus ut palma florebit
!!!PDT:
!!!AGN: Sacred
!!!SMS-siglum: PL-SA
!!!SMS-shelfmark: 272/A VII 32
!!!SMS-shelfwork: W
!!!NIFC-rismid: 1001039789
!!!URL-scan: http://bc.bdsandomierz.pl/dlibra/publication/1755/edition/1723/content
!!!ONB-nifc:
**kern	**fb	**kern	**kern	**kern	**text	**kern	**text	**kern	**text	**kern	**text	**kern	**kern
*part9	*	*part4	*part3	*part8	*part8	*part7	*part7	*part6	*part6	*part5	*part5	*part2	*part1
*group	*	*group3	*group3	*group2	*group2	*group2	*group2	*group2	*group2	*group2	*group2	*group1	*group1
*staff9	*	*staff4	*staff3	*staff8	*staff8	*staff7	*staff7	*staff6	*staff6	*staff5	*staff5	*staff2	*staff1
*Iempty	*	*Ivioln	*Ivioln	*Iempty	*	*Itenor	*	*Ialto	*	*Ivox	*	*Iempty	*Iempty
*I"Fundamento.	*	*I"Violino 2do.	*I"Violino 1mo.	*I"Baſso.	*	*I"Tenore.	*	*I"Alto.	*	*I"Canto.	*	*I"Clarino 2do	*I"Clarino 1mo.
*I'Fund.	*	*I'V-no II	*I'V-no I	*I'B.	*	*I'T.	*	*I'A.	*	*I'C.	*	*I'Cl. II in D	*I'Cl. I in D
*clefF4	*	*clefG2	*clefG2	*clefF4	*	*clefC4	*	*clefC3	*	*clefC1	*	*clefG2	*clefG2
*	*	*	*	*	*	*	*	*	*	*	*	*ITrd-1c-2	*ITrd-1c-2
*k[f#c#]	*	*k[f#c#]	*k[f#c#]	*k[f#c#]	*	*k[f#c#]	*	*k[f#c#]	*	*k[f#c#]	*	*k[f#c#]	*k[f#c#]
*D:	*	*D:	*D:	*D:	*	*D:	*	*D:	*	*D:	*	*D:	*D:
*M4/4	*	*M4/4	*M4/4	*M4/4	*	*M4/4	*	*M4/4	*	*M4/4	*	*M4/4	*M4/4
*met(c)	*	*met(c)	*met(c)	*met(c)	*	*met(c)	*	*met(c)	*	*met(c)	*	*met(c)	*met(c)
=1	=1	=1	=1	=1	=1	=1	=1	=1	=1	=1	=1	=1	=1
*	*above	*2\right	*	*	*	*	*	*	*	*	*	*	*
!LO:TX:b:i:t=Justus ut palma.	!	!LO:TX:b:i:t=Juſtus ut palma.	!LO:TX:b:i:t=Justus ut palma.	!	!	!	!	!	!	!	!	!LO:TX:b:i:t=Justus ut palma.	!LO:TX:b:i:t=Justus ut palma.
!LO:TX:a:t=P:problem:mixed beam	!	!LO:TX:a:t=P:problem:mixed beam	!LO:TX:a:t=P:problem:mixed beam	!	!	!	!	!	!	!	!	!LO:TX:a:t=P:problem:mixed beam	!LO:TX:a:t=P:problem:mixed beam
!	!	!	!	!LO:TX::t=2.	!	!LO:TX::t=2.	!	!LO:TX::t=2.	!	!	!	!	!
8D/L	.	8d/L	8d/L	0r	.	0r	.	0r	.	0r	.	8d/L	8d/L
16d\L	.	16dd\L	16dd\L	.	.	.	.	.	.	.	.	16dd\L	16dd\L
16c#\JJ	.	16cc#\JJ	16cc#\JJ	.	.	.	.	.	.	.	.	16a\JJ	16a\JJ
!LO:TX:a:t=P:problem:mixed beam	!	!LO:TX:a:t=P:problem:mixed beam	!LO:TX:a:t=P:problem:mixed beam	!	!	!	!	!	!	!	!	!LO:TX:a:t=P:problem:mixed beam	!LO:TX:a:t=P:problem:mixed beam
8d\L	.	8dd/L	8dd\L	.	.	.	.	.	.	.	.	8dd\L	8dd\L
8D/J	.	8d/J	8d/J	.	.	.	.	.	.	.	.	8d/J	8d/J
16F#\LL	.	16f#/LL	16f#/LL	.	.	.	.	.	.	.	.	8f#/L	8f#/L
16D\	.	16d/	16d/	.	.	.	.	.	.	.	.	.	.
16F#\	.	16f#/	16f#/	.	.	.	.	.	.	.	.	8f#/	8a/
16G\JJ	.	16g/JJ	16g/JJ	.	.	.	.	.	.	.	.	.	.
!LO:TX:a:t=P:problem:mixed beam	!	!	!	!	!	!	!	!	!	!	!	!	!
8A\L	.	8a/L	8a/L	.	.	.	.	.	.	.	.	8a/	8a/
8AA/J	.	8A/J	8A/J	.	.	.	.	.	.	.	.	8a/J	8a/J
=2	=2	=2	=2	=2	=2	=2	=2	=2	=2	=2	=2	=2	=2
!LO:TX:a:t=P:problem:mixed beam	!	!LO:TX:a:t=P:problem:mixed beam	!LO:TX:a:t=P:problem:mixed beam	!	!	!	!	!	!	!	!	!	!
16D/LL	.	16d/LL	16d/LL	.	.	.	.	.	.	.	.	8dd\L	8dd\L
16d\	.	16dd\	16dd\	.	.	.	.	.	.	.	.	.	.
16c#\	.	16cc#\	16cc#\	.	.	.	.	.	.	.	.	8dd\J	8dd\J
16B\JJ	.	16b\JJ	16b\JJ	.	.	.	.	.	.	.	.	.	.
16A\LL	.	16a/LL	16a/LL	.	.	.	.	.	.	.	.	4r	4r
16G\	.	16g/	16g/	.	.	.	.	.	.	.	.	.	.
16F#\	.	16f#/	16f#/	.	.	.	.	.	.	.	.	.	.
16E\JJ	.	16e/JJ	16e/JJ	.	.	.	.	.	.	.	.	.	.
!LO:TX:a:t=P:problem:mixed beam	!	!LO:TX:a:t=P:problem:mixed beam	!LO:TX:a:t=P:problem:mixed beam	!	!	!	!	!	!	!	!	!	!
16D/LL	.	16d/LL	16d/LL	.	.	.	.	.	.	.	.	2r	2r
16d\	.	16dd\	16dd\	.	.	.	.	.	.	.	.	.	.
16c#\	.	16cc#\	16cc#\	.	.	.	.	.	.	.	.	.	.
16B\JJ	.	16b\JJ	16b\JJ	.	.	.	.	.	.	.	.	.	.
16A\LL	.	16a/LL	16a/LL	.	.	.	.	.	.	.	.	.	.
16G\	.	16g/	16g/	.	.	.	.	.	.	.	.	.	.
16F#\	.	16f#/	16f#/	.	.	.	.	.	.	.	.	.	.
16E\JJ	.	16e/JJ	16e/JJ	.	.	.	.	.	.	.	.	.	.
=3	=3	=3	=3	=3-	=3	=3-	=3	=3-	=3	=3-	=3	=3	=3
16F#\LL	.	16f#/LL	16f#/LL	2r	.	2r	.	2r	.	2r	.	1r	1r
16D\	.	16d/	16d/	.	.	.	.	.	.	.	.	.	.
16F#\	.	16f#/	16f#/	.	.	.	.	.	.	.	.	.	.
16G\JJ	.	16g/JJ	16g/JJ	.	.	.	.	.	.	.	.	.	.
!LO:TX:a:t=P:problem:mixed beam	!	!	!	!	!	!	!	!	!	!	!	!	!
16A\LL	.	16a/LL	16a/LL	.	.	.	.	.	.	.	.	.	.
16G\	.	16g/	16g/	.	.	.	.	.	.	.	.	.	.
16A\	.	16a/	16a/	.	.	.	.	.	.	.	.	.	.
16AA/JJ	.	16A/JJ	16A/JJ	.	.	.	.	.	.	.	.	.	.
4D\	.	4d/	4d/	8D/	Ju-	8A\	Ju-	8a\	Ju-	8ff#\	Ju-	.	.
.	.	.	.	16d\	-stus	16d\	-stus	16a\	-stus	16ff#\	-stus	.	.
.	.	.	.	16c#\	ut	16e\	ut	16a\	ut	16ee\	ut	.	.
4r	.	4r	4r	8d\	pa-	8f#\	pa-	8a\	pa-	8ff#\	pa-	.	.
.	.	.	.	8D/	-lma	8d\	-lma	8a\	-lma	8ff#\	-lma	.	.
=4	=4	=4	=4	=4	=4	=4	=4	=4	=4	=4	=4	=4-	=4-
!	!	!LO:TX:a:t=P:problem:mixed beam	!LO:TX:a:t=P:problem:mixed beam	!	!	!	!	!	!	!	!	!LO:TX:a:t=P:problem:mixed beam	!LO:TX:a:t=P:problem:mixed beam
8D\L	.	8d/L	8d/L	1r	.	1r	.	1r	.	1r	.	8d/L	8d/L
16d\L	.	16dd\L	16dd\L	.	.	.	.	.	.	.	.	16dd\L	16dd\L
16c#\JJ	.	16cc#\JJ	16cc#\JJ	.	.	.	.	.	.	.	.	16a\JJ	16a\JJ
!LO:TX:a:t=P:problem:mixed beam	!	!LO:TX:a:t=P:problem:mixed beam	!LO:TX:a:t=P:problem:mixed beam	!	!	!	!	!	!	!	!	!LO:TX:a:t=P:problem:mixed beam	!LO:TX:a:t=P:problem:mixed beam
8d\L	.	8dd\L	8dd\L	.	.	.	.	.	.	.	.	8dd\L	8dd\L
!LO:SIC:custos na końcu pięciolinii:v	!	!	!	!	!	!	!	!	!	!	!	!	!
8D/J	.	8d/J	8d/J	.	.	.	.	.	.	.	.	8d/J	8d/J
!	!	!	!	!LO:TX:a:t=1.	!	!	!	!	!	!	!	!	!
16F#\LL	.	16f#/LL	16f#/LL	.	.	.	.	.	.	.	.	8f#/L	8f#/L
16D\	.	16d/	16d/	.	.	.	.	.	.	.	.	.	.
16F#\	.	16f#/	16f#/	.	.	.	.	.	.	.	.	16d/L	16d/L
16G\JJ	.	16g/JJ	16g/JJ	.	.	.	.	.	.	.	.	16f#/JJ	16f#/JJ
!LO:TX:a:t=P:problem:mixed beam	!	!	!	!	!	!	!	!	!	!	!	!	!
8A\L	.	8a/L	8a/L	.	.	.	.	.	.	.	.	8a/L	8a/L
8AA/J	.	8A/J	8A/J	.	.	.	.	.	.	.	.	8a/J	8a/J
!	!	!LO:LB:g=original	!	!	!	!	!	!	!	!	!	!	!
=5	=5	=5	=5	=5-	=5	=5-	=5	=5-	=5	=5-	=5	=5	=5
*	*	*	*	*	*ij	*	*ij	*	*ij	*	*	*	*
4D/	.	4d/	4d/	8D/	Ju-	8A\	Ju-	8a\	Ju-	8ff#\	Ju-	4d/	4d/
.	.	.	.	16d\	-stus	16d\	-stus	16a\	-stus	16ff#\	-stus	.	.
.	.	.	.	16c#\	ut	16e\	ut	16a\	ut	16ee\	ut	.	.
4r	.	4r	4r	8d\	pa-	8f#\	pa-	8a\	pa-	8ff#\	pa-	4r	4r
.	.	.	.	8D/	-lma	8d\	-lma	8a\	-lma	8ff#\	-lma	.	.
*	*	*	*	*	*Xij	*	*Xij	*	*Xij	*	*	*	*
!	!	!	!LO:LB:g=original	!	!	!	!	!	!	!LO:TX:a:t=P:problem:mixed beam	!	!	!
!	!	!	!	!LO:TX:a:t=P:problem:mixed beam	!	!	!	!	!	!	!	!	!
4D\	.	2r	2r	16D/LL	flo-	[>2d\	flo-	[>2a\	florebit	16f#/LL	flo-	2r	2r
.	.	.	.	16d\	.	.	.	.	.	16ff#\	.	.	.
.	.	.	.	16c#\	.	.	.	.	.	16ee\	.	.	.
.	.	.	.	16B\JJ	.	.	.	.	.	16dd\JJ	.	.	.
4r	.	.	.	16A\LL	.	.	.	.	.	16cc#\LL	.	.	.
.	.	.	.	16G\	.	.	.	.	.	16b\	.	.	.
.	.	.	.	16F#\	.	.	.	.	.	16a\	.	.	.
.	.	.	.	16E\JJ	.	.	.	.	.	16g\JJ	.	.	.
=6	=6	=6	=6	=6	=6	=6	=6	=6	=6	=6	=6	=6	=6
!	!	!	!	!LO:TX:a:t=P:problem:mixed beam	!	!	!	!	!	!	!	!	!
4D/	.	4d/	4d/	16D/LL	.	2d\]	.	2a\]	.	16f#\LL	.	4d/	4d/
.	.	.	.	16d\	.	.	.	.	.	16ff#\	.	.	.
.	.	.	.	16c#\	.	.	.	.	.	16ee\	.	.	.
!	!	!	!	!	!	!	!	!	!	!LO:TX:a:t=P:problem:w źródle za 16dd dodatkowa kreska taktowa	!	!	!
.	.	.	.	16B\JJ	.	.	.	.	.	16dd\JJ	.	.	.
4r	.	4r	4r	16A\LL	.	.	.	.	.	16cc#\LL	.	4r	4r
.	.	.	.	16G\	.	.	.	.	.	16b\	.	.	.
.	.	.	.	16F#\	.	.	.	.	.	16a\	.	.	.
.	.	.	.	16E\JJ	.	.	.	.	.	16g\JJ	.	.	.
!	!	!LO:TX:a:t=P:problem:mixed beam	!LO:TX:a:t=P:problem:mixed beam	!	!	!	!	!	!	!	!	!LO:TX:a:t=P:problem:mixed beam	!LO:TX:a:t=P:problem:mixed beam
8D\L	.	8d/L	8d/L	8D/	-re-	8d\	-re-	8a\	.	8f#/	-re-	8d/L	8d/L
16d\L	.	16dd\L	16dd\L	8D/	-bit.	8d\	-bit.	8a\	.	8f#/	-bit.	16dd\L	16dd\L
16c#\JJ	.	16cc#/JJ	16cc#\JJ	.	.	.	.	.	.	.	.	16a\JJ	16a\JJ
!LO:TX:a:t=P:problem:mixed beam	!	!LO:TX:a:t=P:problem:mixed beam	!LO:TX:a:t=P:problem:mixed beam	!	!	!	!	!	!	!	!	!LO:TX:a:t=P:problem:mixed beam	!LO:TX:a:t=P:problem:mixed beam
8d\L	.	8dd\L	8dd/L	4r	.	4r	.	4r	.	8r	.	8dd\L	8dd\L
8D/J	.	8d/J	8d/J	.	.	.	.	.	.	8r	.	8d/J	8d/J
!	!	!	!	!LO:LB:g=original	!	!	!	!	!	!LO:LB:g=original	!	!	!
=7	=7	=7	=7	=7	=7	=7	=7	=7	=7	=7	=7	=7	=7
*	*	*	*	*	*	*	*ij	*	*	*	*	*	*
!	!	!	!	!LO:TX:a:t=P:problem:mixed beam	!	!	!	!	!	!LO:TX:a:t=P:problem:mixed beam	!	!	!
4D\	.	4d/	4d/	16D/LL	flo-	[>2d\	flo-	2a\	flo-	16f#/LL	flo-	4d/	4d/
.	.	.	.	16d\	.	.	.	.	.	16ff#\	.	.	.
.	.	.	.	16c#\	.	.	.	.	.	16ee\	.	.	.
.	.	.	.	16B\JJ	.	.	.	.	.	16dd\JJ	.	.	.
4r	.	4r	4r	16A\LL	.	.	.	.	.	16cc#\LL	.	4r	4r
.	.	.	.	16G\	.	.	.	.	.	16b\	.	.	.
.	.	.	.	16F#\	.	.	.	.	.	16a\	.	.	.
.	.	.	.	16E\JJ	.	.	.	.	.	16g\JJ	.	.	.
!	!	!	!	!LO:TX:a:t=P:problem:mixed beam	!	!	!	!	!	!LO:TX:a:t=P:problem:mixed beam	!	!	!
4D/	.	4d/	4d/	16D/LL	.	2d\]	.	2a\	.	16f#/LL	.	4d/	4d/
.	.	.	.	16d\	.	.	.	.	.	16ff#\	.	.	.
.	.	.	.	16c#\	.	.	.	.	.	16ee\	.	.	.
.	.	.	.	16B\JJ	.	.	.	.	.	16dd\JJ	.	.	.
4r	.	4r	4r	16A\LL	.	.	.	.	.	16cc#\LL	.	4r	4r
.	.	.	.	16G\	.	.	.	.	.	16b\	.	.	.
.	.	.	.	16F#\	.	.	.	.	.	16a\	.	.	.
.	.	.	.	16E\JJ	.	.	.	.	.	16g\JJ	.	.	.
=8	=8	=8	=8	=8	=8	=8	=8	=8	=8	=8	=8	=8	=8
!LO:TX:a:t=P:problem:mixed beam	!	!LO:TX:a:t=P:problem:mixed beam	!LO:TX:a:t=P:problem:mixed beam	!	!	!	!	!	!	!	!	!	!
16D/LL	.	16d/LL	16d/LL	8D/	-re-	8d\	-re-	8a\	-re-	8f#/	-re-	4dd\	4ff#\
16d\	.	16dd\	16dd\	.	.	.	.	.	.	.	.	.	.
16c#\	.	16cc#\	16cc#\	8D/	-bit.	8A\	-bit.	8a\	-bit	8f#/	-bit.	.	.
*	*	*	*	*	*	*	*Xij	*	*	*	*	*	*
16B\JJ	.	16b\JJ	16b\JJ	.	.	.	.	.	.	.	.	.	.
!	!	!	!	!	!	!	!	!LO:LB:g=original	!	!	!	!	!
16A\LL	.	16a/LL	16a/LL	4r	.	4r	.	4r	.	4r	.	4r	4r
16G\	.	16g/	16g/	.	.	.	.	.	.	.	.	.	.
16F#\	.	16f#/	16f#/	.	.	.	.	.	.	.	.	.	.
16E\JJ	.	16e/JJ	16e/JJ	.	.	.	.	.	.	.	.	.	.
!LO:TX:a:t=P:problem:mixed beam	!	!LO:TX:a:t=P:problem:mixed beam	!LO:TX:a:t=P:problem:mixed beam	!	!	!	!	!	!	!	!	!	!LO:LB:g=original
16D/LL	.	16d/LL	16d/LL	2r	.	2r	.	2r	.	2r	.	4dd\	4ff#\
16d\	.	16dd\	16dd\	.	.	.	.	.	.	.	.	.	.
16c#\	.	16cc#\	16cc#\	.	.	.	.	.	.	.	.	.	.
16B\JJ	.	16b\JJ	16b\JJ	.	.	.	.	.	.	.	.	.	.
16A\LL	.	16a/LL	16a/LL	.	.	.	.	.	.	.	.	4r	4r
16G\	.	16g/	16g/	.	.	.	.	.	.	.	.	.	.
16F#\	.	16f#/	16f#/	.	.	.	.	.	.	.	.	.	.
16E\JJ	.	16e/JJ	16e/JJ	.	.	.	.	.	.	.	.	.	.
!	!	!	!	!	!	!	!	!	!	!	!	!LO:LB:g=original	!
!	!	!	!	!	!	!LO:LB:g=original	!	!	!	!	!	!	!
=9	=9	=9	=9	=9	=9	=9	=9	=9	=9	=9	=9	=9	=9
!	!	!LO:TX:a:t=P:problem:mixed beam	!LO:TX:a:t=P:problem:mixed beam	!	!	!	!	!	!	!	!	!	!
8D\L	.	8d/L	8d/L	4r	.	4r	.	4r	.	4r	.	8dd\L	8ff#\L
16d\L	.	16dd\L	16dd\L	.	.	.	.	.	.	.	.	16dd\L	16ff#\L
16c#\JJ	.	16cc#\JJ	16cc#\JJ	.	.	.	.	.	.	.	.	16cc#\JJ	16ff#\JJ
!LO:TX:a:t=P:problem:mixed beam	!	!LO:TX:a:t=P:problem:mixed beam	!LO:TX:a:t=P:problem:mixed beam	!	!	!	!	!	!	!	!	!	!
8d\L	.	8dd\L	8dd\L	8D/	Ju-	8f#\	Ju-	8a\	Ju-	8ff#\	Ju-	8dd\L	8ff#\L
!LO:SIC:custos na końcu pięciolinii:v	!	!	!	!	!	!	!	!	!	!	!	!	!
8D/J	.	8d/J	8d/J	16d\	-stus	16d\	-stus	16a\	-stus	16ff#\	-stus	8dd\J	8ff#\J
.	.	.	.	16c#\	ut.	16e\	ut	16a\	ut	16ee\	ut	.	.
!LO:LB:g=original	!	!LO:TX:a:t=P:problem:mixed beam	!LO:TX:a:t=P:problem:mixed beam	!	!	!	!	!	!	!	!	!	!
!LO:TX:a:t=P:problem:mixed beam	!	!	!	!	!	!	!	!	!	!	!	!	!
16D\LL	.	16d/LL	16d/LL	8d\	pa-	8f#\	pa-	8a\	pa-	8ff#\	pa-	4dd\	4ff#\
16d\	.	16dd\	16dd\	.	.	.	.	.	.	.	.	.	.
16c#\	.	16cc#\	16cc#\	8D/	-lma	8d\	-lma	8a\	-lma	8ff#\	-lma	.	.
16B\JJ	.	16b\JJ	16b\JJ	.	.	.	.	.	.	.	.	.	.
16A\LL	.	16a/LL	16a/LL	4r	.	4r	.	4r	.	4r	.	4r	4r
16G\	.	16g/	16g/	.	.	.	.	.	.	.	.	.	.
16F#\	.	16f#/	16f#/	.	.	.	.	.	.	.	.	.	.
16E\JJ	.	16e/JJ	16e/JJ	.	.	.	.	.	.	.	.	.	.
=10	=10	=10	=10	=10	=10	=10	=10	=10	=10	=10	=10	=10	=10
!	!	!	!	!LO:TX:a:t=P:problem:mixed beam	!	!	!	!	!	!LO:TX:a:t=P:problem:mixed beam	!	!	!
4D\	.	4d/	4d/	16D/LL	flo-	[>2d\	flo-	2a\	flo-	16f#/LL	flo-	4ff#\	4ff#\
.	.	.	.	16d\	.	.	.	.	.	16ff#\	.	.	.
.	.	.	.	16c#\	.	.	.	.	.	16ee\	.	.	.
.	.	.	.	16B\JJ	.	.	.	.	.	16dd\JJ	.	.	.
4r	.	4r	4r	16A\LL	.	.	.	.	.	16cc#\LL	.	4r	4r
.	.	.	.	16G\	.	.	.	.	.	16b\	.	.	.
.	.	.	.	16F#\	.	.	.	.	.	16a\	.	.	.
.	.	.	.	16E\JJ	.	.	.	.	.	16g\JJ	.	.	.
!	!	!	!	!LO:TX:a:t=P:problem:mixed beam	!	!	!	!	!	!LO:TX:a:t=P:problem:mixed beam	!	!	!
4D/	.	4d/	4d/	16D/LL	.	2d\]	.	2a\	.	16f#/LL	.	4dd\	4ff#\
.	.	.	.	16d\	.	.	.	.	.	16ff#\	.	.	.
.	.	.	.	16c#\	.	.	.	.	.	16ee\	.	.	.
.	.	.	.	16B\JJ	.	.	.	.	.	16dd\JJ	.	.	.
4r	.	4r	4r	16A\LL	.	.	.	.	.	16cc#\LL	.	4r	4r
.	.	.	.	16G\	.	.	.	.	.	16b\	.	.	.
.	.	.	.	16F#\	.	.	.	.	.	16a\	.	.	.
.	.	.	.	16E\JJ	.	.	.	.	.	16g\JJ	.	.	.
!	!	!	!	!	!	!	!	!	!	!LO:LB:g=original	!	!	!
=11	=11	=11	=11	=11	=11	=11	=11	=11	=11	=11	=11	=11	=11
!	!	!LO:TX:a:t=P:problem:mixed beam	!LO:TX:a:t=P:problem:mixed beam	!	!	!	!	!	!	!	!	!	!
8D\L	.	8d/L	8d/L	8D/	-re-	8d\	-re-	8a\	-re-	8f#/	-re-	8dd\L	8ff#\L
16d\L	.	16dd\L	16dd\L	8D/	-bit.	8A/	-bit.	8a\	-bit	8f#/	-bit.	16dd\L	16ff#\L
16c#\JJ	.	16cc#\JJ	16cc#\JJ	.	.	.	.	.	.	.	.	16a\JJ	16ff#\JJ
!LO:TX:a:t=P:problem:mixed beam	!	!LO:TX:a:t=P:problem:mixed beam	!	!	!	!	!	!	!	!	!	!	!
8d\L	.	8dd\L	8dd\L	4r	.	4r	.	4r	.	4r	.	8dd\L	8ff#\L
8D/J	.	8d/J	8d/J	.	.	.	.	.	.	.	.	8dd\J	8ff#\J
!	!	!LO:LB:g=original	!LO:LB:g=original	!	!	!	!	!	!	!	!	!	!
16F#\LL	.	16f#/LL	16f#/LL	2r	.	2r	.	2r	.	2r	.	8ff#\L	8aa\L
16D\	.	16d/	16d/	.	.	.	.	.	.	.	.	.	.
16F#\	.	16f#/	16f#/	.	.	.	.	.	.	.	.	16ff#\L	16gg\L
16G\JJ	.	16g/JJ	16g/JJ	.	.	.	.	.	.	.	.	16dd\JJ	16ff#\JJ
!LO:TX:a:t=P:problem:mixed beam	!	!	!	!	!	!	!	!	!	!	!	!	!
8A\L	.	8a/L	8a/L	.	.	.	.	.	.	.	.	8a/L	8ee\L
8AA/J	.	8A/J	8A/J	.	.	.	.	.	.	.	.	8a/J	8ee\J
!	!	!	!	!LO:LB:g=original	!	!	!	!	!	!	!	!	!
=12	=12	=12	=12	=12	=12	=12	=12	=12	=12	=12	=12	=12	=12
4D/	.	4d/	4d/	8D/	Ju-	8f#\	Ju-	8a\	iu-	8ff#\	Ju-	4dd\	4ff#\
.	.	.	.	16d\	-stus	16f#\	-stus	16a\	-stus	16ff#\	-stus	.	.
.	.	.	.	16c#\	ut	16f#\	ut	16a\	ut	16ee\	ut	.	.
4r	.	4r	4r	8d\	pa-	8f#\	pa-	8a\	pa-	8ff#\	pa-	4r	4r
.	.	.	.	8D/	-lma.	8d\	-lma	8a\	-lma	8ff#\	-lma	.	.
!LO:TX:a:t=P:problem:mixed beam	!	!LO:TX:a:t=P:problem:mixed beam	!LO:TX:a:t=P:problem:mixed beam	!	!	!	!	!	!	!	!	!	!
16D/LL	.	16d/LL	16d/LL	2r	.	2r	.	2r	.	2r	.	4dd\	4ff#\
16d\	.	16dd\	16dd\	.	.	.	.	.	.	.	.	.	.
16c#\	.	16cc#\	16cc#\	.	.	.	.	.	.	.	.	.	.
16B\JJ	.	16b\JJ	16b\JJ	.	.	.	.	.	.	.	.	.	.
16A\LL	.	16a/LL	16a/LL	.	.	.	.	.	.	.	.	4r	4r
16G\	.	16g/	16g/	.	.	.	.	.	.	.	.	.	.
16F#\	.	16f#/	16f#/	.	.	.	.	.	.	.	.	.	.
16E\JJ	.	16e/JJ	16e/JJ	.	.	.	.	.	.	.	.	.	.
=13	=13	=13	=13	=13	=13	=13	=13	=13	=13	=13	=13	=13	=13
4D\	.	4d/	4d/	1r	.	8f#\	Ju-	8a\	iu-	1r	.	4dd\	4ff#\
.	.	.	.	.	.	16g\	-stus	16b\	-stus	.	.	.	.
.	.	.	.	.	.	16f#\	ut	16a\	.	.	.	.	.
4r	.	4r	4r	.	.	8e\	pa-	8g\	ut	.	.	4r	4r
.	.	.	.	.	.	16f#\	-lma	16a\	pal-	.	.	.	.
.	.	.	.	.	.	16e\	.	16g\	ma	.	.	.	.
!	!	!	!	!	!	!	!	!LO:LB:g=original	!	!	!	!	!
4D/	.	4d/	4d/	.	.	8d\	flo-	8f#\	re-	.	.	2r	2r
.	.	.	.	.	.	16e\	-re-	16g\	-bit	.	.	.	.
.	.	.	.	.	.	16d\	-bit.	16f#\	jus-	.	.	.	.
!	!	!	!	!	!	!LO:LB:g=original	!	!	!	!	!	!	!
4r	.	4r	4r	.	.	8c#\	-Jus-	8e\	-tus	.	.	.	.
.	.	.	.	.	.	16d\	-tus	(>16f#\LL	.	.	.	.	.
.	.	.	.	.	.	16c#\	ut.	16e\JJ)	ut	.	.	.	.
=14	=14	=14	=14	=14-	=14	=14	=14	=14	=14	=14-	=14	=14	=14
4D/	.	4d/	4d/	2r	.	8d\	pa-	8f#\	flo-	2r	.	2r	4ff#\
.	.	.	.	.	.	16e\	-lma	16g\	-re-	.	.	.	.
.	.	.	.	.	.	16d\	flo-	16f#\	-bit	.	.	.	.
4r	.	4r	4r	.	.	8c#\	-re-	8e\	.	.	.	.	4r
.	.	.	.	.	.	16d\	-bit	16f#\	pal-	.	.	.	.
.	.	.	.	.	.	16c#\	flo-	16e\	ma	.	.	.	.
!LO:TX:a:t=P:problem:mixed beam	!	!LO:TX:a:t=P:problem:mixed beam	!LO:TX:a:t=P:problem:mixed beam	!	!	!	!	!	!	!	!	!	!
!	!	!	!	!LO:TX:a:t=P:problem:mixed beam	!	!	!	!	!	!LO:TX:a:t=P:problem:mixed beam	!	!	!
16D/LL	.	16d/LL	16f#/LL	16D/LL	flo-	8d\	-re-	8f#\	.	16f#/LL	flo-	4dd\	4ff#\
16d\	.	16dd\	16dd\	16d\	.	.	.	.	.	16ff#\	.	.	.
16c#\	.	16cc#\	16cc#\	16c#\	.	8d\	-bit:	8f#\	florebit	16ee\	.	.	.
16B\JJ	.	16b\JJ	16b\JJ	16B\JJ	.	.	.	.	.	16dd\JJ	.	.	.
!LO:LB:g=original	!	!	!	!	!	!	!	!	!	!	!	!	!
16A\LL	.	16a/LL	16a\LL	16A\LL	.	4r	.	4r	.	16cc#\LL	.	4r	4r
16G\	.	16g/	16g\	16G\	.	.	.	.	.	16b\	.	.	.
16F#\	.	16f#/	16f#\	16F#\	.	.	.	.	.	16a\	.	.	.
16E\JJ	.	16e/JJ	16e\JJ	16E\JJ	.	.	.	.	.	16g\JJ	.	.	.
=15	=15	=15	=15	=15	=15	=15	=15	=15	=15	=15	=15	=15	=15
4D/	.	4d/	4f#/	8D/	-re-	16f#\LL	flo-	16a\LL	.	8f#/	-re-	4dd\	4ff#\
.	.	.	.	.	.	16c#\	.	16e\	.	.	.	.	.
.	.	.	.	8D/	-bit.	16d\	.	16f#\	.	8f#/	-bit.	.	.
.	.	.	.	.	.	16e\JJ	.	16g\JJ	.	.	.	.	.
4r	.	4r	4r	4r	.	16f#\LL	.	16a\LL	flo-	4r	.	4r	4r
.	.	.	.	.	.	16c#\	.	16e\	.	.	.	.	.
.	.	.	.	.	.	16d\	.	16f#\	.	.	.	.	.
.	.	.	.	.	.	16e\JJ	.	16g\JJ	.	.	.	.	.
!	!	!	!	!LO:TX:a:t=P:problem:mixed beam	!	!	!	!	!	!LO:TX:a:t=P:problem:mixed beam	!	!	!
4D\	.	4d/	4e/	16D/LL	flo-	2d\	.	2a\	.	16f#/LL	flo-	4dd\	4ff#\
.	.	.	.	16d\	.	.	.	.	.	16ff#\	.	.	.
.	.	.	.	16c#\	.	.	.	.	.	16ee\	.	.	.
.	.	.	.	16B\JJ	.	.	.	.	.	16dd\JJ	.	.	.
4r	.	4r	4r	16A\LL	.	.	.	.	.	16cc#\LL	.	4r	4r
.	.	.	.	16G\	.	.	.	.	.	16b\	.	.	.
.	.	.	.	16F#\	.	.	.	.	.	16a\	.	.	.
.	.	.	.	16E\JJ	.	.	.	.	.	16g\JJ	.	.	.
=16	=16	=16	=16	=16	=16	=16	=16	=16	=16	=16	=16	=16	=16
!LO:TX:a:t=P:problem:mixed beam	!	!LO:TX:a:t=P:problem:mixed beam	!LO:TX:a:t=P:problem:mixed beam	!	!	!	!	!	!	!	!	!	!
8D\L	.	8d/L	8d/L	8D/	-re-	8f#\	re-	8a\	-re-	8f#/	-re-	8dd\L	8ff#\L
16d\L	.	16dd\L	16dd\L	8D/	-bit.	8d\	-bit.	8a\	-bit.	8f#/	-bit.	16dd\L	16ee\L
16c#\JJ	.	16cc#\JJ	16cc#\JJ	.	.	.	.	.	.	.	.	16a\JJ	16dd\JJ
!LO:TX:a:t=P:problem:mixed beam	!	!LO:TX:a:t=P:problem:mixed beam	!LO:TX:a:t=P:problem:mixed beam	!	!	!	!	!	!	!	!	!	!LO:LB:g=original
8d\L	.	8dd\L	8dd\L	4r	.	4r	.	4r	.	4r	.	8dd\L	8ff#\L
8D/J	.	8d/J	8d/J	.	.	.	.	.	.	.	.	8ee\J	8ff#\J
16F#\LL	.	16f#/LL	16f#/LL	2r	.	2r	.	2r	.	2r	.	8ff#\L	8aa\L
16D\	.	16d/	16d/	.	.	.	.	.	.	.	.	.	.
16F#\	.	16f#/	16f#/	.	.	.	.	.	.	.	.	16ee\L	16gg\L
16G\JJ	.	16g/JJ	16g/JJ	.	.	.	.	.	.	.	.	16dd\JJ	16ff#\JJ
!LO:TX:a:t=P:problem:mixed beam	!	!	!	!	!	!	!	!	!	!	!	!	!
8A\L	.	8a/L	8a/L	.	.	.	.	.	.	.	.	8a/L	8ee\L
8AA/J	.	8A/J	8A/J	.	.	.	.	.	.	.	.	8a/J	8ee\J
!	!	!	!	!	!	!	!	!	!	!	!	!LO:LB:g=original	!
=17	=17	=17	=17	=17	=17	=17	=17	=17	=17	=17	=17	=17	=17
!LO:TX:a:t=P:problem:mixed beam	!	!	!	!	!	!	!	!	!	!	!	!	!
8D/L	.	4d/	4d/	8D\	Ju-	8A\	Ju-	8a\	-Ju-	8ff#\	Ju-	4dd\	4ff#\
16d\L	.	.	.	16d\	-stus	16d\	-stus	16a\	-stus	16ff#\	-stus	.	.
16c#\JJ	.	.	.	16c#\	ut	16e\	ut	16a\	ut	16ee\	ut	.	.
!	!	!	!	!	!	!	!	!LO:LB:g=original	!	!LO:LB:g=original	!	!	!
!LO:TX:a:t=P:problem:mixed beam	!	!	!	!	!	!	!	!	!	!	!	!	!
8d\L	.	4r	4r	8d\	pa-	8f#\	pa-	8a\	pa-	8ff#\	pa-	4r	4r
8D/J	.	.	.	8D\	-lma.	8d\	-lma	8a\	-lma	8ff#\	-lma	.	.
!	!	!LO:LB:g=original	!LO:LB:g=original	!	!	!	!	!	!	!	!	!	!
4D/	.	16ff#\LL	16aa\LL	2r	.	2r	.	2r	.	2r	.	2r	2r
.	.	16dd\	16ff#\	.	.	.	.	.	.	.	.	.	.
.	.	16ee\	16gg\	.	.	.	.	.	.	.	.	.	.
.	.	16ff#\JJ	16aa\JJ	.	.	.	.	.	.	.	.	.	.
4r	.	16ee\LL	16gg\LL	.	.	.	.	.	.	.	.	.	.
.	.	16cc#\	16ee\	.	.	.	.	.	.	.	.	.	.
.	.	16dd\	16ff#\	.	.	.	.	.	.	.	.	.	.
.	.	16ee\JJ	16gg\JJ	.	.	.	.	.	.	.	.	.	.
!	!	!	!	!LO:LB:g=original	!	!LO:LB:g=original	!	!	!	!	!	!	!
=18	=18	=18	=18	=18	=18	=18	=18	=18	=18	=18	=18	=18	=18
!	!	!	!	!LO:TX:a:t=2.	!	!LO:TX:a:t=2.	!	!LO:TX:a:t=2.	!	!	!	!	!
4D/	.	16dd\LL	16ff#\LL	0r	.	0r	.	0r	.	0r	.	4d/	4d/
.	.	16cc#\J	16ee\J	.	.	.	.	.	.	.	.	.	.
!	!	!LO:TX:a:t=d.	!	!	!	!	!	!	!	!	!	!	!
.	.	8ee\J	8ff#\J	.	.	.	.	.	.	.	.	.	.
4r	.	16ee\LL	16gg\LL	.	.	.	.	.	.	.	.	4r	4r
.	.	16cc#\J	16ee\J	.	.	.	.	.	.	.	.	.	.
.	.	8dd\J	8ff#\J	.	.	.	.	.	.	.	.	.	.
2r	.	16ff#\LL	16aa\LL	.	.	.	.	.	.	.	.	4d/	4d/
.	.	16cc#\J	16ee\J	.	.	.	.	.	.	.	.	.	.
.	.	8dd\J	8ff#\J	.	.	.	.	.	.	.	.	.	.
.	.	16ee\LL	16gg\LL	.	.	.	.	.	.	.	.	4r	4r
.	.	16cc#\J	16ee\J	.	.	.	.	.	.	.	.	.	.
.	.	8dd\J	8ff#\J	.	.	.	.	.	.	.	.	.	.
=19	=19	=19	=19	=19	=19	=19	=19	=19	=19	=19	=19	=19	=19
4D\	.	16ff#\LL	16aa\LL	.	.	.	.	.	.	.	.	4d/	4d/
.	.	16dd\	16ff#\	.	.	.	.	.	.	.	.	.	.
.	.	16ee\	16gg\	.	.	.	.	.	.	.	.	.	.
.	.	16ff#\JJ	16aa\JJ	.	.	.	.	.	.	.	.	.	.
4r	.	16ee\LL	16gg\LL	.	.	.	.	.	.	.	.	4r	4r
.	.	16cc#\	16ee\	.	.	.	.	.	.	.	.	.	.
.	.	16dd\	16ff#\	.	.	.	.	.	.	.	.	.	.
.	.	16ee\JJ	16gg\JJ	.	.	.	.	.	.	.	.	.	.
2r	.	16dd\LL	16ff#\LL	.	.	.	.	.	.	.	.	4d/	4d/
.	.	16cc#\J	16ee\J	.	.	.	.	.	.	.	.	.	.
.	.	8dd\J	8ff#\J	.	.	.	.	.	.	.	.	.	.
.	.	16ee\LL	16gg\LL	.	.	.	.	.	.	.	.	4r	4r
.	.	16cc#\J	16ee\J	.	.	.	.	.	.	.	.	.	.
.	.	8dd\J	8ff#\J	.	.	.	.	.	.	.	.	.	.
=20	=20	=20	=20	=20-	=20	=20-	=20	=20-	=20	=20-	=20	=20	=20
*	*	*	*	*	*	*	*	*	*	*	*ij	*	*
!	!	!LO:TX:a:t=P:problem:mixed beam	!LO:TX:a:t=P:problem:mixed beam	!	!	!	!	!	!	!	!	!	!
8D\L	.	8d/L	8d/L	8D\	Ju-	8A\	Ju-	8a\	iu-	8ff#\	Ju-	8dd\L	8ff#\L
16d\L	.	16dd\L	16dd\L	16d\	-stus	16d\	-stus	16a\	-stus	16ff#\	-stus	16dd\L	16ee\L
16c#\JJ	.	16cc#\JJ	16cc#\JJ	16c#\	ut	16e\	ut	16a\	ut	16ee\	ut	16a\JJ	16dd\JJ
!LO:TX:a:t=P:problem:mixed beam	!	!LO:TX:a:t=P:problem:mixed beam	!	!	!	!	!	!	!	!	!	!	!
8d\L	.	8dd\L	8dd\L	8d\	pa-	8f#\	pa-	8a\	pa-	8ff#\	pa-	8dd\L	8ff#\L
8D/J	.	8d/J	8d/J	8D\	-lma.	8d\	-lma.	8a\	-lma	8ff#\	-lma	8dd\J	8ff#\J
2r	.	4d/	4d/	2r	.	2r	.	2r	.	2r	.	8ff#\L	8aa\L
.	.	.	.	.	.	.	.	.	.	.	.	16ee\L	16aa\L
.	.	.	.	.	.	.	.	.	.	.	.	16dd\JJ	16ff#\JJ
.	.	4r	4r	.	.	.	.	.	.	.	.	8ee\L	8gg\L
.	.	.	.	.	.	.	.	.	.	.	.	8a\J	8ee\J
!LO:LB:g=original	!	!	!	!	!	!	!	!	!	!	!	!	!
=21	=21	=21	=21	=21	=21	=21	=21	=21	=21	=21	=21	=21	=21
!	!	!	!	!	!	!	!	!LO:TX:a:t=2.	!	!	!	!	!
4D/	.	4d/	4d/	0r	.	0r	.	0r	.	0r	.	8dd\L	8ff#\L
.	.	.	.	.	.	.	.	.	.	.	.	16a\L	16ee\L
.	.	.	.	.	.	.	.	.	.	.	.	16dd\JJ	16ff#\JJ
4r	.	4r	4r	.	.	.	.	.	.	.	.	8ee\L	8gg\L
.	.	.	.	.	.	.	.	.	.	.	.	16a\L	16ee\L
.	.	.	.	.	.	.	.	.	.	.	.	16ee\JJ	16ff#\JJ
2r	.	4d/	4d/	.	.	.	.	.	.	.	.	8ff#\L	8aa\L
.	.	.	.	.	.	.	.	.	.	.	.	16dd\L	16ff#\L
.	.	.	.	.	.	.	.	.	.	.	.	16ff#\JJ	16aa\JJ
.	.	4r	4r	.	.	.	.	.	.	.	.	8dd\L	8ff#\L
.	.	.	.	.	.	.	.	.	.	.	.	16a\L	16ee\L
.	.	.	.	.	.	.	.	.	.	.	.	16dd\JJ	16ff#\JJ
=22	=22	=22	=22	=22	=22	=22	=22	=22	=22	=22	=22	=22	=22
1r	.	4r	4r	.	.	.	.	.	.	.	.	8a\L	8ee\L
.	.	.	.	.	.	.	.	.	.	.	.	16ff#\L	16aa\L
.	.	.	.	.	.	.	.	.	.	.	.	16ff#\JJ	16aa\JJ
.	.	4d/	4d/	.	.	.	.	.	.	.	.	8ff#\L	8aa\L
.	.	.	.	.	.	.	.	.	.	.	.	16ee\L	16gg\L
.	.	.	.	.	.	.	.	.	.	.	.	16dd\JJ	16ff#\JJ
.	.	4r	4r	.	.	.	.	.	.	.	.	8ee\L	8gg\L
.	.	.	.	.	.	.	.	.	.	.	.	16dd\L	16ff#\L
.	.	.	.	.	.	.	.	.	.	.	.	16a\JJ	16ee\JJ
.	.	8d/L	8d/L	.	.	.	.	.	.	.	.	8dd\L	8ff#\L
.	.	8A/J	8A/J	.	.	.	.	.	.	.	.	8a\J	8ee\J
!	!	!LO:LB:g=original	!LO:LB:g=original	!	!	!	!	!	!	!	!	!	!LO:LB:g=original
=23-	=23-	=23	=23	=23-	=23	=23-	=23	=23-	=23	=23-	=23	=23	=23
!LO:TX:a:t=P:problem:mixed beam	!	!LO:TX:a:t=P:problem:mixed beam	!LO:TX:a:t=P:problem:mixed beam	!	!	!	!	!	!	!	!	!	!
8D/L	.	8d/L	8d/L	4r	.	4r	.	4r	.	4r	.	8dd\L	8ff#\L
16d\L	.	16dd\L	16dd\L	.	.	.	.	.	.	.	.	16dd\L	16ff#\L
16c#\JJ	.	16cc#\JJ	16cc#\JJ	.	.	.	.	.	.	.	.	16a\JJ	16ee\JJ
*	*	*	*	*	*ij	*	*ij	*	*	*	*	*	*
!LO:TX:a:t=P:problem:mixed beam	!	!LO:TX:a:t=P:problem:mixed beam	!LO:TX:a:t=P:problem:mixed beam	!	!	!	!	!	!	!	!	!	!
8d\L	.	8dd\L	8dd\L	8D/	Ju-	8A\	Ju-	8a\	iu-	8ff#\	Ju-	8dd\L	8ff#\L
8D/J	.	8d/J	8d/J	16d\	-stus	16d\	-stus	16a\	-stus	16ff#\	-stus	8dd\J	8ff#\J
.	.	.	.	16c#\	ut	16e\	ut	16a\	ut	16ee\	ut	.	.
!LO:TX:a:t=P:problem:mixed beam	!	!LO:TX:a:t=P:problem:mixed beam	!LO:TX:a:t=P:problem:mixed beam	!	!	!	!	!	!	!	!	!LO:LB:g=original	!
16D/LL	.	16d/LL	16d/LL	8d\	pa-	8f#\	pa-	8a\	pa-	8ff#\	pa-	4dd\	4ff#\
16d\	.	16dd\	16dd\	.	.	.	.	.	.	.	.	.	.
16c#\	.	16cc#\	16cc#\	8D/	-lma.	8d\	-lma	8a\	-lma	8ff#\	-lma	.	.
16B\JJ	.	16b\JJ	16b\JJ	.	.	.	.	.	.	.	.	.	.
16A\LL	.	16a/LL	16a/LL	4r	.	4r	.	4r	.	4r	.	4r	4r
16G\	.	16g/	16g/	.	.	.	.	.	.	.	.	.	.
16F#\	.	16f#/	16f#/	.	.	.	.	.	.	.	.	.	.
16E\JJ	.	16e/JJ	16e/JJ	.	.	.	.	.	.	.	.	.	.
=24	=24	=24	=24	=24	=24	=24	=24	=24	=24	=24	=24	=24	=24
*	*	*	*	*	*Xij	*	*Xij	*	*	*	*Xij	*	*
!	!	!	!	!LO:TX:a:t=P:problem:mixed beam	!	!	!	!	!	!LO:TX:a:t=P:problem:mixed beam	!	!	!
4D/	.	4d/	4d/	16D/LL	flo-	2d\	flo-	2a\	flo-	16f#/LL	flo-	4dd\	4ff#\
.	.	.	.	16d\	.	.	.	.	.	16ff#\	.	.	.
.	.	.	.	16c#\	.	.	.	.	.	16ee\	.	.	.
.	.	.	.	16B\JJ	.	.	.	.	.	16dd\JJ	.	.	.
4r	.	4r	4r	16A\LL	.	.	.	.	.	16cc#\LL	.	4r	4r
.	.	.	.	16G\	.	.	.	.	.	16b\	.	.	.
.	.	.	.	16F#\	.	.	.	.	.	16a\	.	.	.
.	.	.	.	16E\JJ	.	.	.	.	.	16g\JJ	.	.	.
!LO:TX:a:t=P:problem:mixed beam	!	!LO:TX:a:t=P:problem:mixed beam	!LO:TX:a:t=P:problem:mixed beam	!	!	!	!	!	!	!	!	!	!
8D/L	.	8d/L	8d/L	8D/	-re-	8d\	-re-	8a\L	re-	8f#/	-re-	8dd\L	8ff#\L
16d\L	.	16dd\L	16dd\L	8D/	-bit.	8A\	-bit.	8a\J	-bit	8f#/	-bit.	16dd\L	16ff#\L
16c#\JJ	.	16cc#\JJ	16cc#\JJ	.	.	.	.	.	.	.	.	16a\JJ	16ee\JJ
!LO:TX:a:t=P:problem:mixed beam	!	!LO:TX:a:t=P:problem:mixed beam	!LO:TX:a:t=P:problem:mixed beam	!	!	!	!	!	!	!	!	!	!
8d\L	.	8dd\L	8dd\L	4r	.	4r	.	4r	.	4r	.	8dd\L	8ff#\L
8D/J	.	8d/J	8d/J	.	.	.	.	.	.	.	.	8dd\J	8ff#\J
=25	=25	=25	=25	=25	=25	=25	=25	=25	=25	=25	=25	=25	=25
*	*	*	*	*	*ij	*	*	*	*ij	*	*	*	*
!	!	!	!	!LO:TX:a:t=P:problem:mixed beam	!	!	!	!	!	!LO:TX:a:t=P:problem:mixed beam	!	!	!
4D/	.	4d/	4d/	16D/LL	flo-	[>2d\	flo-	[>2a\	flo-	16f#/LL	flo-	4dd\	4ff#\
.	.	.	.	16d\	.	.	.	.	.	16ff#\	.	.	.
.	.	.	.	16c#\	.	.	.	.	.	16ee\	.	.	.
.	.	.	.	16B\JJ	.	.	.	.	.	16dd\JJ	.	.	.
4r	.	4r	4r	16A\LL	.	.	.	.	.	16cc#\LL	.	4r	4r
.	.	.	.	16G\	.	.	.	.	.	16b\	.	.	.
.	.	.	.	16F#\	.	.	.	.	.	16a\	.	.	.
.	.	.	.	16E\JJ	.	.	.	.	.	16g\JJ	.	.	.
!	!	!	!	!	!	!	!	!	!	!LO:LB:g=original	!	!	!
!	!	!	!	!LO:TX:a:t=P:problem:mixed beam	!	!	!	!	!	!LO:TX:a:t=P:problem:mixed beam	!	!	!
4D\	.	4d/	4d/	16D/LL	.	2d\]	.	2a\]	.	16f#/LL	.	4dd\	4ff#\
.	.	.	.	16d\	.	.	.	.	.	16ff#\	.	.	.
.	.	.	.	16c#\	.	.	.	.	.	16ee\	.	.	.
.	.	.	.	16B\JJ	.	.	.	.	.	16dd\JJ	.	.	.
4r	.	4r	4r	16A\LL	.	.	.	.	.	16cc#\LL	.	4r	4r
.	.	.	.	16G\	.	.	.	.	.	16b\	.	.	.
.	.	.	.	16F#\	.	.	.	.	.	16a\	.	.	.
.	.	.	.	16E\JJ	.	.	.	.	.	16g\JJ	.	.	.
!	!	!	!	!	!	!	!	!LO:LB:g=original	!	!	!	!	!
=26	=26	=26	=26	=26	=26	=26	=26	=26	=26	=26	=26	=26	=26
!LO:TX:a:t=P:problem:mixed beam	!	!LO:TX:a:t=P:problem:mixed beam	!LO:TX:a:t=P:problem:mixed beam	!	!	!	!	!	!	!	!	!	!
16D/LL	.	16d/LL	16d/LL	8D/	-re-	8d\	-re-	8a\	-re-	8f#/	-re-	4dd\	4ff#\
16d\	.	16dd\	16dd\	.	.	.	.	.	.	.	.	.	.
16c#\	.	16cc#\	16cc#\	8D/	-bit.	8A/	-bit:	8a\	-bit	8f#/	-bit.	.	.
*	*	*	*	*	*Xij	*	*	*	*Xij	*	*	*	*
16B\JJ	.	16b\JJ	16b\JJ	.	.	.	.	.	.	.	.	.	.
16A\LL	.	16a/LL	16a/LL	4r	.	4r	.	4r	.	4r	.	4r	4r
16G\	.	16g/	16g/	.	.	.	.	.	.	.	.	.	.
16F#\	.	16f#/	16f#/	.	.	.	.	.	.	.	.	.	.
16E\JJ	.	16e/JJ	16e/JJ	.	.	.	.	.	.	.	.	.	.
!LO:TX:a:t=P:problem:mixed beam	!	!LO:TX:a:t=P:problem:mixed beam	!LO:TX:a:t=P:problem:mixed beam	!	!	!	!	!	!	!	!	!	!
16D/LL	.	16d/LL	16d/LL	2r	.	2r	.	2r	.	2r	.	4dd\	4ff#\
16d\	.	16dd\	16dd\	.	.	.	.	.	.	.	.	.	.
16c#\	.	16cc#\	16cc#\	.	.	.	.	.	.	.	.	.	.
16B\JJ	.	16b\JJ	16b\JJ	.	.	.	.	.	.	.	.	.	.
16A\LL	.	16a/LL	16a/LL	.	.	.	.	.	.	.	.	4r	4r
16G\	.	16g/	16g/	.	.	.	.	.	.	.	.	.	.
16F#\	.	16f#/	16f#/	.	.	.	.	.	.	.	.	.	.
16E\JJ	.	16e/JJ	16e/JJ	.	.	.	.	.	.	.	.	.	.
!	!	!	!	!LO:LB:g=original	!	!LO:LB:g=original	!	!	!	!	!	!	!
=27	=27	=27	=27	=27	=27	=27	=27	=27	=27	=27	=27	=27	=27
!LO:TX:a:t=P:problem:mixed beam	!	!LO:TX:a:t=P:problem:mixed beam	!LO:TX:a:t=P:problem:mixed beam	!	!	!	!	!	!	!	!	!	!
8D/L	.	8d/L	8d/L	8D\	Ju-	8A\	Ju-	8a\	iu-	8ff#\	Ju-	8dd\L	8ff#\L
16d\L	.	16dd\L	16dd\L	16d\	-stus	16d\	-stus	16a\	-stus	16ff#\	-stus	16dd\L	16ff#\L
16c#\JJ	.	16cc#\JJ	16cc#\JJ	16c#\	ut	16e\	ut	16a\	ut	16ee\	ut	16a\JJ	16ee\JJ
!LO:LB:g=original	!	!	!	!	!	!	!	!	!	!	!	!	!
!LO:TX:a:t=P:problem:mixed beam	!	!LO:TX:a:t=P:problem:mixed beam	!	!	!	!	!	!	!	!	!	!	!
8d\L	.	8dd\L	8dd\L	8d\	pa-	8f#\	pa-	8a\	pa-	8ff#\	pa-	8dd\L	8ff#\L
8D/J	.	8d/J	8d/J	8D\	-lma	8d\	-lma	8a\	-lma	8ff#\	-lma	8dd\J	8gg\J
16F#\LL	.	16f#/LL	16f#/LL	2r	.	2r	.	2r	.	2r	.	8ff#\L	8aa\L
16D\	.	16d/	16d/	.	.	.	.	.	.	.	.	.	.
16F#\	.	16f#/	16f#/	.	.	.	.	.	.	.	.	16ee\L	16gg\L
16G\JJ	.	16g/JJ	16g/JJ	.	.	.	.	.	.	.	.	16dd\JJ	16ff#\JJ
!LO:TX:a:t=P:problem:mixed beam	!	!	!	!	!	!	!	!	!	!	!	!	!
8A\L	.	8a/L	8a/L	.	.	.	.	.	.	.	.	8a/L	8ff#\L
8AA/J	.	8A/J	8A/J	.	.	.	.	.	.	.	.	8a/J	8ff#\J
!	!	!LO:LB:g=original	!LO:LB:g=original	!	!	!	!	!	!	!	!	!	!
=28	=28	=28	=28	=28	=28	=28	=28	=28	=28	=28	=28	=28	=28
!LO:TX:a:t=P:problem:mixed beam	!	!LO:TX:a:t=P:problem:mixed beam	!LO:TX:a:t=P:problem:mixed beam	!	!	!	!	!	!	!	!	!	!
16D/LL	.	16d/LL	16d/LL	1r	.	1r	.	1r	.	1r	.	4dd\	4ff#\
16d\	.	16dd\	16dd\	.	.	.	.	.	.	.	.	.	.
16c#\	.	16cc#\	16cc#\	.	.	.	.	.	.	.	.	.	.
16B\JJ	.	16b/JJ	16b\JJ	.	.	.	.	.	.	.	.	.	.
16A\LL	.	16a/LL	16a/LL	.	.	.	.	.	.	.	.	4r	4r
!	!	!	!	!	!	!	!	!LO:TX:a:t=1.	!	!	!	!	!
16G\	.	16g/	16g/	.	.	.	.	.	.	.	.	.	.
16F#\	.	16f#/	16f#/	.	.	.	.	.	.	.	.	.	.
16E\JJ	.	16e/JJ	16e/JJ	.	.	.	.	.	.	.	.	.	.
!LO:TX:a:t=P:problem:mixed beam	!	!LO:TX:a:t=P:problem:mixed beam	!LO:TX:a:t=P:problem:mixed beam	!	!	!	!	!	!	!	!	!	!
16D/LL	.	16d\LL	16d/LL	.	.	.	.	.	.	.	.	4dd\	4ff#\
16d\	.	16dd/	16dd\	.	.	.	.	.	.	.	.	.	.
16c#\	.	16cc#\	16cc#\	.	.	.	.	.	.	.	.	.	.
16B\JJ	.	16b\JJ	16b\JJ	.	.	.	.	.	.	.	.	.	.
16A\LL	.	16a/LL	16a/LL	.	.	.	.	.	.	.	.	4r	4r
16G\	.	16g/	16g/	.	.	.	.	.	.	.	.	.	.
16F#\	.	16f#/	16f#/	.	.	.	.	.	.	.	.	.	.
16E\JJ	.	16e/JJ	16e/JJ	.	.	.	.	.	.	.	.	.	.
=29	=29	=29	=29	=29-	=29	=29-	=29	=29-	=29	=29-	=29	=29	=29
*	*	*	*	*	*ij	*	*ij	*	*	*	*	*	*
!LO:TX:a:t=P:problem:mixed beam	!	!LO:TX:a:t=P:problem:mixed beam	!LO:TX:a:t=P:problem:mixed beam	!	!	!	!	!	!	!	!	!	!
8D/L	.	8d\L	8d/L	8D/	Ju-	8A\	Ju-	8a\	iu-	8ff#\	Ju-	8dd\L	8ff#\L
16d\L	.	16dd/L	16dd\L	16d\	-stus	16d\	-stus	16a\	-stus	16ff#\	-stus	16dd\L	16ff#\L
16c#\JJ	.	16cc#\JJ	16cc#\JJ	16c#\	ut	16e\	ut	16a\	ut	16ee\	ut	16a\JJ	16ee\JJ
!LO:TX:a:t=P:problem:mixed beam	!	!LO:TX:a:t=P:problem:mixed beam	!LO:TX:a:t=P:problem:mixed beam	!	!	!	!	!	!	!	!	!	!
8d\L	.	8dd\L	8dd\L	8d\	pa-	8f#\	pa-	8a\	pa-	8ff#\	pa-	8dd\L	8ff#\L
8D/J	.	8d/J	8d/J	8D/	-lma	8d\	-lma	8a\	-lma.	8ff#\	-lma.	8dd\J	8ff#\J
*	*	*	*	*	*Xij	*	*Xij	*	*	*	*	*	*
2r	.	2r	2r	2r	.	2r	.	2r	.	2r	.	2r	2r
!	!	!	!	!	!	!	!	!	!	!LO:LB:g=original	!	!LO:LB:g=original	!LO:LB:g=original
=30||	=30||	=30||	=30||	=30||	=30	=30	=30	=30	=30	=30||	=30	=30	=30
*M3/2	*	*M3/2	*M3/2	*M3/2	*	*M3/2	*	*M3/2	*	*M3/2	*	*M3/2	*M3/2
!	!	!	!	!	!	!	!	!	!	!	!	!	!LO:TX:a:t=P:problem:w źródle "Sicut Caedrus Tacet." zapisane na pustej pięciolinii
!	!	!	!	!	!	!	!	!	!	!	!	!	!LO:TX:a:t=Sicut Caedrus Tacet.
!	!	!	!	!	!	!	!	!	!	!	!	!LO:TX:a:t=P:problem:w źródle "Sicut Cedrus. Tacet." zapisane na pustej pięciolinii	!
!	!	!	!	!	!	!LO:TX:a:t=P:problem:w źródle ta adnotacja zapisana na pięciolinii, za takzem 30	!	!LO:TX:a:t=P:problem:w źródle ta adnotacja zapisana na pięciolinii, za takzem 30	!	!	!	!	!
!	!	!	!LO:TX:b:t=Sicut Caedruſ	!	!	!LO:TX:a:t=Sicut Caedruſ Tacet.	!	!LO:TX:a:t=Sicut Caedruſ \nTacet..	!	!	!	!LO:TX:a:t=Sicut Cedrus. Tacet.	!
!	!	!	!	!	!	!	!	!	!	!LO:N:vis=00	!	!	!
!	!	!	!	!LO:N:vis=00	!	!	!	!	!	!LO:TX:a:t=15.	!	!	!
1BB	.	1.r	2f#/	00.r	.	1.ryy	.	1.ryy	.	00.r	.	1.ryy	1.ryy
.	.	.	2f#/	.	.	.	.	.	.	.	.	.	.
2r	.	.	2b/	.	.	.	.	.	.	.	.	.	.
=31	=31	=31-	=31	=31	=31	=31	=31	=31	=31	=31	=31	=31	=31
1F#	X #	2f#/	2cc#\	.	.	1.ryy	.	1.ryy	.	.	.	1.ryy	1.ryy
.	.	2f#/	2cc#\	.	.	.	.	.	.	.	.	.	.
2r	.	2b/	2dd\	.	.	.	.	.	.	.	.	.	.
=32	=32	=32	=32	=32	=32	=32	=32	=32	=32	=32	=32	=32	=32
1C#	X 7	2g#X/	1ee	.	.	1.ryy	.	1.ryy	.	.	.	1.ryy	1.ryy
.	X 6/	4a#X/	.	.	.	.	.	.	.	.	.	.	.
.	.	4f#/	.	.	.	.	.	.	.	.	.	.	.
2BB/	.	2b/	2dd\	.	.	.	.	.	.	.	.	.	.
!LO:LB:g=original	!	!	!	!	!	!	!	!	!	!	!	!	!
=33	=33	=33	=33	=33	=33	=33	=33	=33	=33	=33	=33	=33	=33
2F#\	X #	2a#X/	2cc#\	.	.	1.ryy	.	1.ryy	.	.	.	1.ryy	1.ryy
2r	.	4dd\	4ff#\	.	.	.	.	.	.	.	.	.	.
.	.	4cc#\	4ee\	.	.	.	.	.	.	.	.	.	.
2r	.	4b\	4dd\	.	.	.	.	.	.	.	.	.	.
.	.	4a#X\	4cc#\	.	.	.	.	.	.	.	.	.	.
=34	=34	=34	=34	=34	=34	=34	=34	=34	=34	=34	=34	=34	=34
!	!	!	!	!LO:N:vis=00	!	!	!	!	!	!LO:N:vis=00	!	!	!
2BB/	.	2b\	2dd\	00.r	.	1.ryy	.	1.ryy	.	00.r	.	1.ryy	1.ryy
!	!	!	!LO:LB:g=original	!	!	!	!	!	!	!	!	!	!
2r	.	4ee\	4gg\	.	.	.	.	.	.	.	.	.	.
.	.	4dd\	4ff#\	.	.	.	.	.	.	.	.	.	.
2r	.	4cc#\	4ee\	.	.	.	.	.	.	.	.	.	.
.	.	4b\	4dd\	.	.	.	.	.	.	.	.	.	.
=35	=35	=35	=35	=35	=35	=35	=35	=35	=35	=35	=35	=35	=35
2AA/	.	2cc#\	2ee\	.	.	1.ryy	.	1.ryy	.	.	.	1.ryy	1.ryy
!	!	!LO:LB:g=original	!	!	!	!	!	!	!	!	!	!	!
2r	.	4ff#\	4aa\	.	.	.	.	.	.	.	.	.	.
.	.	4ee\	4gg\	.	.	.	.	.	.	.	.	.	.
2r	.	4dd\	4ff#\	.	.	.	.	.	.	.	.	.	.
.	.	4cc#\	4ee\	.	.	.	.	.	.	.	.	.	.
=36	=36	=36	=36	=36	=36	=36	=36	=36	=36	=36	=36	=36	=36
2D/	.	2.dd\	2.ff#\	.	.	1.ryy	.	1.ryy	.	.	.	1.ryy	1.ryy
2r	.	.	.	.	.	.	.	.	.	.	.	.	.
.	.	4ee\	4gg\	.	.	.	.	.	.	.	.	.	.
2r	.	2ff#\	2aa\	.	.	.	.	.	.	.	.	.	.
=37	=37	=37	=37	=37	=37	=37	=37	=37	=37	=37	=37	=37	=37
2G\	.	4ee\	4gg\	.	.	1.ryy	.	1.ryy	.	.	.	1.ryy	1.ryy
.	.	4dd\	4ff#\	.	.	.	.	.	.	.	.	.	.
2A\	7 5	2.cc#\	2.ee\	.	.	.	.	.	.	.	.	.	.
2AA/	.	.	.	.	.	.	.	.	.	.	.	.	.
.	.	4dd\	4dd\	.	.	.	.	.	.	.	.	.	.
=38	=38	=38	=38	=38	=38	=38	=38	=38	=38	=38	=38	=38	=38
!	!	!	!	!LO:N:vis=00	!	!	!	!	!	!LO:N:vis=00	!	!	!
2D\	.	2dd\	2dd\	00.r	.	1.ryy	.	1.ryy	.	00.r	.	1.ryy	1.ryy
1A#	X 6	2r	4ff#\	.	.	.	.	.	.	.	.	.	.
.	.	.	4ee\	.	.	.	.	.	.	.	.	.	.
.	.	2r	4dd\	.	.	.	.	.	.	.	.	.	.
.	.	.	4cc#\	.	.	.	.	.	.	.	.	.	.
=39	=39	=39	=39	=39	=39	=39	=39	=39	=39	=39	=39	=39	=39
2B\	X 3-	4b/	2dd\	.	.	1.ryy	.	1.ryy	.	.	.	1.ryy	1.ryy
.	.	4f#/	.	.	.	.	.	.	.	.	.	.	.
2r	.	4b/	2r	.	.	.	.	.	.	.	.	.	.
.	.	4a/	.	.	.	.	.	.	.	.	.	.	.
2r	.	4g/	2r	.	.	.	.	.	.	.	.	.	.
.	.	4f#/	.	.	.	.	.	.	.	.	.	.	.
=40	=40	=40	=40	=40	=40	=40	=40	=40	=40	=40	=40	=40	=40
2E\	X 3-	2g/	4ee\	.	.	1.ryy	.	1.ryy	.	.	.	1.ryy	1.ryy
.	.	.	4b\	.	.	.	.	.	.	.	.	.	.
2r	.	2r	4ee\	.	.	.	.	.	.	.	.	.	.
.	.	.	4dd\	.	.	.	.	.	.	.	.	.	.
2r	.	2r	4cc#\	.	.	.	.	.	.	.	.	.	.
.	.	.	4b\	.	.	.	.	.	.	.	.	.	.
=41	=41	=41	=41	=41	=41	=41	=41	=41	=41	=41	=41	=41	=41
2A\	.	4a/	2cc#\	.	.	1.ryy	.	1.ryy	.	.	.	1.ryy	1.ryy
.	.	4e/	.	.	.	.	.	.	.	.	.	.	.
2r	.	4a/	2r	.	.	.	.	.	.	.	.	.	.
.	.	4g/	.	.	.	.	.	.	.	.	.	.	.
2r	.	4f#/	2r	.	.	.	.	.	.	.	.	.	.
.	.	4e/	.	.	.	.	.	.	.	.	.	.	.
=42	=42	=42	=42	=42	=42	=42	=42	=42	=42	=42	=42	=42	=42
!	!	!	!	!LO:N:vis=00	!	!	!	!	!	!LO:N:vis=0	!	!	!
2D\	.	2d/	2f#/	00.r	.	1.ryy	.	1.ryy	.	0.r	.	1.ryy	1.ryy
2r	.	2b/	2dd\	.	.	.	.	.	.	.	.	.	.
2F#\	X #	2a#X/	2ee\	.	.	.	.	.	.	.	.	.	.
=43	=43	=43	=43	=43	=43	=43	=43	=43	=43	=43	=43	=43	=43
2BB/	X -	2.b/	2.dd\	.	.	1.ryy	.	1.ryy	.	.	.	1.ryy	1.ryy
2r	.	.	.	.	.	.	.	.	.	.	.	.	.
.	.	4cc#\	4ee\	.	.	.	.	.	.	.	.	.	.
2r	.	2dd\	2ff#\	.	.	.	.	.	.	.	.	.	.
!	!	!	!LO:LB:g=original	!	!	!	!	!	!	!	!	!	!
=44	=44	=44	=44	=44	=44	=44	=44	=44	=44	=44	=44	=44	=44
!	!	!	!	!	!	!	!	!	!	!LO:TX:a:i:t=adagio.	!	!	!
2E\	7 5	4cc#\	4ee\	.	.	1.ryy	.	1.ryy	.	1.r	.	1.ryy	1.ryy
.	.	4b\	4dd\	.	.	.	.	.	.	.	.	.	.
!	!	!LO:LB:g=original	!	!	!	!	!	!	!	!	!	!	!
2F#\	.	2.a#X/	2.cc#\	.	.	.	.	.	.	.	.	.	.
2FF#/	.	.	.	.	.	.	.	.	.	.	.	.	.
.	.	4b\	4b/	.	.	.	.	.	.	.	.	.	.
!LO:LB:g=original	!	!	!	!	!	!	!	!	!	!	!	!	!
=45	=45	=45	=45	=45	=45	=45	=45	=45	=45	=45-	=45	=45	=45
2BB/	X -	2b/	2b/	.	.	1.ryy	.	1.ryy	.	1b	Si-	1.ryy	1.ryy
2r	.	2r	2r	.	.	.	.	.	.	.	.	.	.
2r	.	2r	2r	.	.	.	.	.	.	2cc#\	-cut.	.	.
=46	=46	=46	=46	=46-	=46	=46	=46	=46	=46	=46	=46	=46	=46
!	!	!LO:TX:a:t=9	!	!	!	!	!	!	!	!	!	!	!
!	!	!LO:N:vis=00	!LO:N:vis=00	!	!	!	!	!	!	!	!	!	!
2BB/	.	00.r	00.r	1B	Si-	1.ryy	.	1.ryy	.	1dd	cae-	1.ryy	1.ryy
2r	.	.	.	.	.	.	.	.	.	.	.	.	.
2r	.	.	.	2c#\	-cut	.	.	.	.	2a#X\	-drus	.	.
=47	=47	=47	=47	=47	=47	=47	=47	=47	=47	=47	=47	=47	=47
1BB	.	.	.	1d	Cae-	1.ryy	.	1.ryy	.	2.b\	Li-	1.ryy	1.ryy
.	.	.	.	.	.	.	.	.	.	4b\	-ba-	.	.
2F#\	.	.	.	2A#X\	-drus	.	.	.	.	2cc#\	-ni	.	.
=48	=48	=48	=48	=48	=48	=48	=48	=48	=48	=48	=48	=48	=48
1A#	X 6	.	.	2.A\	Li-	1.ryy	.	1.ryy	.	2cc#\	mul-	1.ryy	1.ryy
.	.	.	.	.	.	.	.	.	.	(>4ff#\	-ti-	.	.
.	.	.	.	4A\	-ba-	.	.	.	.	4ee\)	.	.	.
2r	.	.	.	2A\	-ni	.	.	.	.	(>4dd\	-pli-	.	.
.	.	.	.	.	.	.	.	.	.	4cc#\)	.	.	.
!	!	!	!	!LO:LB:g=original	!	!	!	!	!	!	!	!	!
=49	=49	=49	=49	=49	=49	=49	=49	=49	=49	=49	=49	=49	=49
1B	.	.	.	2F#\	multi-	1.ryy	.	1.ryy	.	2dd\	-ca-	1.ryy	1.ryy
.	.	.	.	(>4B\	-pli-	.	.	.	.	2r	.	.	.
.	.	.	.	4A\)	.	.	.	.	.	.	.	.	.
2r	.	.	.	(>4G\	.	.	.	.	.	2r	.	.	.
.	.	.	.	4F#\)	-ca.-	.	.	.	.	.	.	.	.
=50	=50	=50	=50	=50	=50	=50	=50	=50	=50	=50	=50	=50	=50
!	!	!LO:N:vis=00	!LO:N:vis=00	!	!	!	!	!	!	!	!	!	!
1.E	X 3-	00.r	00.r	2G\	.	1.ryy	.	1.ryy	.	2b\	.	1.ryy	1.ryy
.	.	.	.	2r	.	.	.	.	.	(>4ee\	.	.	.
.	.	.	.	.	.	.	.	.	.	4dd\)	.	.	.
.	.	.	.	2r	.	.	.	.	.	(>4cc#\	.	.	.
.	.	.	.	.	.	.	.	.	.	4b\)	.	.	.
!	!	!	!	!	!	!	!	!	!	!LO:LB:g=original	!	!	!
=51	=51	=51	=51	=51	=51	=51	=51	=51	=51	=51	=51	=51	=51
1A	.	.	.	2E\	.	1.ryy	.	1.ryy	.	2cc#\	.	1.ryy	1.ryy
.	.	.	.	(>4A\	.	.	.	.	.	2r	.	.	.
.	.	.	.	4G\)	.	.	.	.	.	.	.	.	.
2r	.	.	.	(>4F#\	.	.	.	.	.	2r	.	.	.
.	.	.	.	4E\)	.	.	.	.	.	.	.	.	.
=52	=52	=52	=52	=52	=52	=52	=52	=52	=52	=52	=52	=52	=52
1D	.	.	.	2F#\	.	1.ryy	.	1.ryy	.	2a\	.	1.ryy	1.ryy
.	.	.	.	2r	.	.	.	.	.	(>4dd\	.	.	.
.	.	.	.	.	.	.	.	.	.	4cc#\)	.	.	.
2r	.	.	.	2r	.	.	.	.	.	(>4b\	.	.	.
.	.	.	.	.	.	.	.	.	.	4a\)	.	.	.
=53	=53	=53	=53	=53	=53	=53	=53	=53	=53	=53	=53	=53	=53
1G	.	.	.	2D/	.	1.ryy	.	1.ryy	.	2.b\	.	1.ryy	1.ryy
.	.	.	.	(>4G\	.	.	.	.	.	.	.	.	.
.	.	.	.	4F#\)	.	.	.	.	.	4a\	.	.	.
2r	.	.	.	(>4E\	.	.	.	.	.	2g/	.	.	.
.	.	.	.	4D\)	.	.	.	.	.	.	.	.	.
=54	=54	=54	=54	=54	=54	=54	=54	=54	=54	=54	=54	=54	=54
2D/	.	1.r	1.r	2D/	.	1.ryy	.	1.ryy	.	2f#/	.	1.ryy	1.ryy
2A\	.	.	.	2.A\	.	.	.	.	.	2.e/	.	.	.
2AA/	X 43	.	.	.	.	.	.	.	.	.	.	.	.
.	.	.	.	4AA/	-bi-	.	.	.	.	4d/	-bi-	.	.
=55	=55	=55-	=55-	=55	=55	=55	=55	=55	=55	=55	=55	=55	=55
2D/	.	2ff#\	2a/	2D/	-tur.	1.ryy	.	1.ryy	.	2d/	-tur.	1.ryy	1.ryy
2r	.	2ee\	2g/	2r	.	.	.	.	.	2r	.	.	.
2r	.	2dd\	2f#/	2r	.	.	.	.	.	2r	.	.	.
=56	=56	=56	=56	=56	=56	=56	=56	=56	=56	=56	=56	=56	=56
!	!	!	!	!	!	!	!	!	!	!LO:TX:a:t=3.	!	!	!
!	!	!	!	!LO:N:vis=0	!	!	!	!	!	!LO:N:vis=0	!	!	!
2AA/	.	2cc#\	2e/	0.r	.	1.ryy	.	1.ryy	.	0.r	.	1.ryy	1.ryy
2r	.	2ff#\	2a/	.	.	.	.	.	.	.	.	.	.
2r	.	2ee\	2g/	.	.	.	.	.	.	.	.	.	.
!LO:PB:g=original	!	!	!	!	!	!	!	!	!	!	!	!	!
=57	=57	=57	=57	=57	=57	=57	=57	=57	=57	=57	=57	=57	=57
2D/	.	2.dd\	2.f#/	.	.	1.ryy	.	1.ryy	.	.	.	1.ryy	1.ryy
2r	.	.	.	.	.	.	.	.	.	.	.	.	.
.	.	4ee\	4g/	.	.	.	.	.	.	.	.	.	.
2r	.	2ff#\	2a/	.	.	.	.	.	.	.	.	.	.
=58	=58	=58	=58	=58	=58	=58	=58	=58	=58	=58	=58	=58	=58
2G\	7 5	4ee\	4g/	1.r	.	1.ryy	.	1.ryy	.	1.r	.	1.ryy	1.ryy
.	.	4dd\	4f#/	.	.	.	.	.	.	.	.	.	.
2A\	.	2.cc#\	2.e/	.	.	.	.	.	.	.	.	.	.
2AA/	X 43	.	.	.	.	.	.	.	.	.	.	.	.
.	.	4dd\	4d/	.	.	.	.	.	.	.	.	.	.
=59	=59	=59	=59	=59-	=59	=59	=59	=59	=59	=59-	=59	=59	=59
2D/	.	2dd\	2d/	(2.A\	Cae-	1.ryy	.	1.ryy	.	(>2.ff#\	ce-	1.ryy	1.ryy
2r	.	2r	2r	.	.	.	.	.	.	.	.	.	.
.	.	.	.	4G\	.	.	.	.	.	4ee\	-drus	.	.
2r	.	2r	2r	2F#\)	-drus	.	.	.	.	2dd\)	.	.	.
=60	=60	=60	=60	=60	=60	=60	=60	=60	=60	=60	=60	=60	=60
!	!	!LO:TX:a:t=5	!	!	!	!	!	!	!	!	!	!	!
!	!	!LO:N:vis=00	!LO:N:vis=00	!	!	!	!	!	!	!	!	!	!
2AA/	.	00.r	00.r	2.E\	Li-	1.ryy	.	1.ryy	.	2.cc#\	Li-	1.ryy	1.ryy
2r	.	.	.	.	.	.	.	.	.	.	.	.	.
.	.	.	.	4E\	-ba-	.	.	.	.	4cc#\	-ba-	.	.
2r	.	.	.	2E\	-ni	.	.	.	.	2cc#\	-ni	.	.
!	!	!	!	!LO:LB:g=original	!	!	!	!	!	!	!	!	!
=61	=61	=61	=61	=61	=61	=61	=61	=61	=61	=61	=61	=61	=61
!LO:N:vis=0	!	!	!	!	!	!	!	!	!	!	!	!	!
0.r	.	.	.	2AA/	plan-	1.ryy	.	1.ryy	.	2a\	plan-	1.ryy	1.ryy
!LO:TX:a:t=2	!	!	!	!	!	!	!	!	!	!	!	!	!
.	.	.	.	2BB/	-ta-	.	.	.	.	2g/	-ta-	.	.
.	.	.	.	2C#/	-ti	.	.	.	.	2e/	-ti	.	.
!	!	!	!	!	!	!	!	!	!	!LO:LB:g=original	!	!	!
=62	=62	=62	=62	=62	=62	=62	=62	=62	=62	=62	=62	=62	=62
.	.	.	.	2D/	in	1.ryy	.	1.ryy	.	2f#/	in	1.ryy	1.ryy
.	.	.	.	2BB/	Do-	.	.	.	.	2g/	do-	.	.
!	!	!	!	!LO:TX:a:t=P:problem:nie wyświetla się kreska taktowa za 2C#	!	!	!	!	!	!LO:TX:a:t=P:problem:nie wyświetla się kreska taktowa za 2e	!	!	!
.	.	.	.	2C#/	-mo	.	.	.	.	2e/	-mo	.	.
=63-	=63-	=63	=63	=63	=63	=63	=63	=63	=63	=63	=63	=63	=63
2D/	.	.	.	2.D/	Do-	1.ryy	.	1.ryy	.	2.f#/	Do-	1.ryy	1.ryy
2r	.	.	.	.	.	.	.	.	.	.	.	.	.
.	.	.	.	4E\	-mi-	.	.	.	.	4g/	-mi-	.	.
2r	.	.	.	2F#\	-ni	.	.	.	.	2a\	-ni	.	.
=64	=64	=64	=64	=64	=64	=64	=64	=64	=64	=64	=64	=64	=64
2G\	7 5	1.r	1.r	4E\	si-	1.ryy	.	1.ryy	.	4g/	Si-	1.ryy	1.ryy
.	.	.	.	4D\	-cut	.	.	.	.	4f#/	-cut	.	.
2A\	.	.	.	(>2A\	Cae-	.	.	.	.	(>(<2.e/	cae-	.	.
2AA/	X 43	.	.	2AA/)	drus	.	.	.	.	.	.	.	.
.	.	.	.	.	.	.	.	.	.	4d/))	-drus.	.	.
=65	=65	=65-	=65	=65	=65	=65	=65	=65	=65	=65	=65	=65	=65
2D/	.	2ff#\	2a/	2D/	.	1.ryy	.	1.ryy	.	2d/	.	1.ryy	1.ryy
2r	.	2ee\	2g/	2r	.	.	.	.	.	2r	.	.	.
!	!	!	!	!	!	!	!	!	!	!LO:TX:a:t=P:problem:w źródle "V. Cito." zapisane na pięciolinii, za taktem 65	!	!	!
!	!	!	!	!	!	!	!	!	!	!LO:TX:a:t=V(erte). Cito.	!	!	!
2r	.	2dd\	2f#/	2r	.	.	.	.	.	2r	.	.	.
!	!	!	!	!	!	!	!	!	!	!LO:LB:g=original	!	!	!
=66	=66	=66	=66	=66	=66	=66	=66	=66	=66	=66	=66	=66	=66
!	!	!LO:TX:a:t=20.	!	!	!	!	!	!	!	!	!	!	!
!LO:N:vis=0	!	!LO:N:vis=00	!LO:N:vis=00	!	!	!	!	!	!	!	!	!	!
0.r	.	00.r	00.r	2AA/	plan-	1.ryy	.	1.ryy	.	2a\	plan-	1.ryy	1.ryy
!LO:TX:a:t=2	!	!	!	!	!	!	!	!	!	!	!	!	!
.	.	.	.	2BB/	-ta-	.	.	.	.	2g/	-ta-	.	.
.	.	.	.	2C#/	-ti	.	.	.	.	2e/	-tus	.	.
=67	=67	=67	=67	=67	=67	=67	=67	=67	=67	=67	=67	=67	=67
.	.	.	.	2D/	in	1.ryy	.	1.ryy	.	2f#/	in	1.ryy	1.ryy
.	.	.	.	2BB/	Do-	.	.	.	.	2g/	do-	.	.
!	!	!	!	!LO:TX:a:t=P:problem:nie wyświetla się kreska taktowa za 2C#	!	!	!	!	!	!LO:TX:a:t=P:problem:nie wyświetla się kreska taktowa za 2e	!	!	!
.	.	.	.	2C#/	-mo.	.	.	.	.	2e/	-mo	.	.
!	!	!	!	!LO:LB:g=original	!	!	!	!	!	!	!	!	!
=68-	=68-	=68	=68	=68	=68	=68	=68	=68	=68	=68	=68	=68	=68
2D/	.	.	.	2.D/	Do-	1.ryy	.	1.ryy	.	2.f#/	Do-	1.ryy	1.ryy
2r	.	.	.	.	.	.	.	.	.	.	.	.	.
.	.	.	.	4E\	-mi-	.	.	.	.	4g\	-mi-	.	.
2r	.	.	.	2F#\	-ni	.	.	.	.	2a/	-ni	.	.
=69	=69	=69	=69	=69	=69	=69	=69	=69	=69	=69	=69	=69	=69
2G\	7 5	.	.	4E\	si-	1.ryy	.	1.ryy	.	4g/	Si-	1.ryy	1.ryy
.	.	.	.	4D\	-cut	.	.	.	.	4f#/	-cut	.	.
2A\	.	.	.	(>2A\	Cae-	.	.	.	.	(<2.e/	cae-	.	.
2AA/	X 43	.	.	2AA/)	.	.	.	.	.	.	.	.	.
.	.	.	.	.	.	.	.	.	.	4d/)	-drus	.	.
=70	=70	=70	=70	=70	=70	=70	=70	=70	=70	=70	=70	=70	=70
!	!	!LO:N:vis=00	!LO:N:vis=00	!	!	!	!	!	!	!	!	!	!
2D/	.	00.r	00.r	2D/	-drus.	1.ryy	.	1.ryy	.	2d/	Si-	1.ryy	1.ryy
2BB/	X 3-	.	.	2r	.	.	.	.	.	2b\	.	.	.
!	!	!	!	!LO:TX:a:t=P:problem:w źródle "V. Cito." zapisane na pięciolinii, za taktem 70	!	!	!	!	!	!	!	!	!
!	!	!	!	!LO:TX:a:t=V(erte). Cito.	!	!	!	!	!	!	!	!	!
2F#\	X #	.	.	2r	.	.	.	.	.	2cc#\	-cut	.	.
!LO:LB:g=original	!	!	!	!LO:PB:g=original	!	!	!	!	!	!	!	!	!
=71	=71	=71	=71	=71	=71	=71	=71	=71	=71	=71	=71	=71	=71
1BB	X 3-	.	.	1B	Si-	1.ryy	.	1.ryy	.	1dd	Cae-	1.ryy	1.ryy
2r	.	.	.	2c#\	-cut	.	.	.	.	2a#X\	-drus	.	.
=72	=72	=72	=72	=72	=72	=72	=72	=72	=72	=72	=72	=72	=72
1BB	X 3-	.	.	1d	Cae-	1.ryy	.	1.ryy	.	2.b\	Li-	1.ryy	1.ryy
.	.	.	.	.	.	.	.	.	.	4b\	-ba-	.	.
2F#\	.	.	.	2A#X\	-drus	.	.	.	.	2cc#\	-ni.	.	.
!	!	!	!	!	!	!	!	!	!	!LO:LB:g=original	!	!	!
=73	=73	=73	=73	=73	=73	=73	=73	=73	=73	=73	=73	=73	=73
2A#\	.	.	.	2.A\	Li-	1.ryy	.	1.ryy	.	2cc#\	Mul-	1.ryy	1.ryy
2r	.	.	.	.	.	.	.	.	.	(>4ff#\	-ti--	.	.
.	.	.	.	4A\	-ba	.	.	.	.	4ee\)	-pli--	.	.
2r	.	.	.	2A\	-ni	.	.	.	.	(>4dd\	-ca.-	.	.
.	.	.	.	.	.	.	.	.	.	4cc#\)	.	.	.
=74	=74	=74	=74	=74	=74	=74	=74	=74	=74	=74	=74	=74	=74
!	!	!LO:N:vis=00	!LO:N:vis=00	!	!	!	!	!	!	!	!	!	!
2B\	X 3-	00.r	00.r	2F#\	mul-	1.ryy	.	1.ryy	.	2dd\	.	1.ryy	1.ryy
2r	.	.	.	(>4B\	-ti-	.	.	.	.	2r	.	.	.
.	.	.	.	(>4A\)	.	.	.	.	.	.	.	.	.
2r	.	.	.	4G\)	-pli-	.	.	.	.	2r	.	.	.
.	.	.	.	4F#\	.	.	.	.	.	.	.	.	.
=75	=75	=75	=75	=75	=75	=75	=75	=75	=75	=75	=75	=75	=75
2E\	X -	.	.	2G\	-ca.	1.ryy	.	1.ryy	.	2b\	.	1.ryy	1.ryy
2r	.	.	.	2r	.	.	.	.	.	(>4ee\	.	.	.
.	.	.	.	.	.	.	.	.	.	4dd\)	.	.	.
2r	.	.	.	2r	.	.	.	.	.	(>4cc#\	.	.	.
.	.	.	.	.	.	.	.	.	.	4b\)	.	.	.
=76	=76	=76	=76	=76	=76	=76	=76	=76	=76	=76	=76	=76	=76
*	*	*	*	*	*ij	*	*	*	*	*	*	*	*
2A\	.	.	.	2E\	mul-	1.ryy	.	1.ryy	.	2cc#\	.	1.ryy	1.ryy
2r	.	.	.	(>4A\	-ti-	.	.	.	.	2r	.	.	.
.	.	.	.	4G\)	.	.	.	.	.	.	.	.	.
2r	.	.	.	(>4F#\	-pli-	.	.	.	.	2r	.	.	.
.	.	.	.	4E\)	.	.	.	.	.	.	.	.	.
=77	=77	=77	=77	=77	=77	=77	=77	=77	=77	=77	=77	=77	=77
2D/	X 6	.	.	2D/	-ca.	1.ryy	.	1.ryy	.	4f#/	.	1.ryy	1.ryy
.	.	.	.	.	.	.	.	.	.	4b\	.	.	.
2r	.	.	.	2r	.	.	.	.	.	4cc#\	.	.	.
.	.	.	.	.	.	.	.	.	.	4dd\	.	.	.
2r	.	.	.	4c#\	mul-	.	.	.	.	4ee\	.	.	.
.	.	.	.	4d\	-ti-	.	.	.	.	4ff#\	.	.	.
=78	=78	=78	=78	=78	=78	=78	=78	=78	=78	=78	=78	=78	=78
!	!	!LO:N:vis=00	!LO:N:vis=00	!	!	!	!	!	!	!	!	!	!
1F#	X #	00.r	00.r	2.c#\	-plica-	1.ryy	.	1.ryy	.	2.ee\	.	1.ryy	1.ryy
*	*	*	*	*	*Xij	*	*	*	*	*	*	*	*
.	.	.	.	4B\	bi-	.	.	.	.	4dd\	-bi-	.	.
2r	.	.	.	2A#X\	-tur	.	.	.	.	2cc#\	-tur	.	.
!	!	!	!	!LO:LB:g=original	!	!	!	!	!	!	!	!	!
=79	=79	=79	=79	=79	=79	=79	=79	=79	=79	=79	=79	=79	=79
2B\	X 3-	.	.	2B\	Si-	1.ryy	.	1.ryy	.	4dd\	Si-	1.ryy	1.ryy
.	.	.	.	.	.	.	.	.	.	4cc#\	-cut	.	.
2F#\	.	.	.	2D\	-cut	.	.	.	.	(>2.cc#\	Cae-	.	.
2FF#/	X 43	.	.	2FF#/	Cae-	.	.	.	.	.	.	.	.
.	.	.	.	.	.	.	.	.	.	4b\)	-drus	.	.
=80	=80	=80	=80	=80	=80	=80	=80	=80	=80	=80	=80	=80	=80
2BB/	X -	.	.	2BB/	-drus	1.ryy	.	1.ryy	.	4b\	mul-	1.ryy	1.ryy
.	.	.	.	.	.	.	.	.	.	4b\	-ti-	.	.
2r	.	.	.	2r	.	.	.	.	.	(>4ff#\	.	.	.
.	.	.	.	.	.	.	.	.	.	4ee\)	.	.	.
2r	.	.	.	2r	.	.	.	.	.	(>4dd\	-pli-	.	.
.	.	.	.	.	.	.	.	.	.	4cc#\)	.	.	.
!	!	!	!	!	!	!	!	!	!	!LO:LB:g=original	!	!	!
=81	=81	=81	=81	=81	=81	=81	=81	=81	=81	=81	=81	=81	=81
2B\	X -	.	.	2F#\	mul-	1.ryy	.	1.ryy	.	2dd\	-ca-	1.ryy	1.ryy
2r	.	.	.	(>4B\	-ti-	.	.	.	.	2r	.	.	.
.	.	.	.	4A\)	.	.	.	.	.	.	.	.	.
2r	.	.	.	(>4G\	-pli-	.	.	.	.	2r	.	.	.
.	.	.	.	4F#\)	.	.	.	.	.	.	.	.	.
=82	=82	=82	=82	=82	=82	=82	=82	=82	=82	=82	=82	=82	=82
!	!	!LO:N:vis=00	!LO:N:vis=00	!	!	!	!	!	!	!	!	!	!
2E\	X -	00.r	00.r	2G\	-ca.-	1.ryy	.	1.ryy	.	2b\	.	1.ryy	1.ryy
2r	.	.	.	2r	.	.	.	.	.	(>4ee\	.	.	.
.	.	.	.	.	.	.	.	.	.	4dd\)	.	.	.
2r	.	.	.	2r	.	.	.	.	.	(>4cc#\	.	.	.
.	.	.	.	.	.	.	.	.	.	4b\)	.	.	.
!LO:LB:g=original	!	!	!	!	!	!	!	!	!	!	!	!	!
=83	=83	=83	=83	=83	=83	=83	=83	=83	=83	=83	=83	=83	=83
2F#\	X #	.	.	4F#\	.	1.ryy	.	1.ryy	.	4a#X\	.	1.ryy	1.ryy
.	.	.	.	4A#X\	.	.	.	.	.	4cc#\	.	.	.
2r	.	.	.	4d\	.	.	.	.	.	4ff#\	.	.	.
.	.	.	.	4c#\	.	.	.	.	.	4ee\	.	.	.
2r	.	.	.	4B\	.	.	.	.	.	4dd\	.	.	.
.	.	.	.	4A#X\	.	.	.	.	.	4cc#\	.	.	.
=84	=84	=84	=84	=84	=84	=84	=84	=84	=84	=84	=84	=84	=84
2BB/	.	.	.	2.B\	.	1.ryy	.	1.ryy	.	2.dd\	.	1.ryy	1.ryy
2r	.	.	.	.	.	.	.	.	.	.	.	.	.
.	.	.	.	4c#\	-bi-	.	.	.	.	4ee\	-bi-	.	.
2r	.	.	.	2d\	-tur	.	.	.	.	2ff#\	-tur	.	.
=85	=85	=85	=85	=85	=85	=85	=85	=85	=85	=85	=85	=85	=85
2E\	6 5	.	.	4c#\	Si-	1.ryy	.	1.ryy	.	4ee\	Si-	1.ryy	1.ryy
.	.	.	.	4B\	-cut	.	.	.	.	4dd\	-cut	.	.
2F#\	.	.	.	2F#\	.	.	.	.	.	(>2.cc#\	Cae-	.	.
2FF#/	X 43	.	.	2FF#/	Cae-	.	.	.	.	.	.	.	.
.	.	.	.	.	.	.	.	.	.	4b\)	.	.	.
=86	=86	=86-	=86-	=86	=86	=86	=86	=86	=86	=86	=86	=86	=86
2BB/	.	2a#X/	2ff#\	2BB/	-drus	1.ryy	.	1.ryy	.	2b\	-drus	1.ryy	1.ryy
2r	.	2a#/	2cc#\	2r	.	.	.	.	.	2r	.	.	.
2r	.	2b/	2dd\	2r	.	.	.	.	.	2r	.	.	.
!	!	!	!	!LO:LB:g=original	!	!	!	!	!	!	!	!	!
=87	=87	=87	=87	=87	=87	=87	=87	=87	=87	=87	=87	=87	=87
!	!	!	!	!LO:N:vis=0	!	!	!	!	!	!LO:N:vis=0	!	!	!
2AA/	.	2.cc#\	2.ee\	0.r	.	1.ryy	.	1.ryy	.	0.r	.	1.ryy	1.ryy
2r	.	.	.	.	.	.	.	.	.	.	.	.	.
.	.	4ee\	4gg\	.	.	.	.	.	.	.	.	.	.
2r	.	4dd\	4ff#\	.	.	.	.	.	.	.	.	.	.
.	.	4cc#\	4ee\	.	.	.	.	.	.	.	.	.	.
=88	=88	=88	=88	=88	=88	=88	=88	=88	=88	=88	=88	=88	=88
2BB/	X -	4b/	4dd\	.	.	1.ryy	.	1.ryy	.	.	.	1.ryy	1.ryy
.	.	4a#X/	4cc#\	.	.	.	.	.	.	.	.	.	.
2F#\	.	2.a#/	2.cc#\	.	.	.	.	.	.	.	.	.	.
2FF#/	X 43	.	.	.	.	.	.	.	.	.	.	.	.
.	.	4b/	4b\	.	.	.	.	.	.	.	.	.	.
=89	=89	=89	=89	=89	=89	=89	=89	=89	=89	=89	=89	=89	=89
1.BB	.	2b/	2b/	1.r	.	1.ryy	.	1.ryy	.	1.r	.	1.ryy	1.ryy
.	.	2r	2r	.	.	.	.	.	.	.	.	.	.
.	.	2r	2r	.	.	.	.	.	.	.	.	.	.
!LO:LB:g=original	!	!	!	!	!	!	!	!	!	!	!	!LO:LB:g=original	!LO:LB:g=original
!	!	!	!	!	!	!LO:LB:g=original	!	!LO:LB:g=original	!	!LO:LB:g=original	!	!	!
=90||	=90||	=90||	=90||	=90	=90	=90	=90	=90	=90	=90	=90	=90	=90
*M4/4	*	*M4/4	*M4/4	*M4/4	*	*M4/4	*	*M4/4	*	*M4/4	*	*M4/4	*M4/4
*met(c)	*	*met(c)	*met(c)	*met(c)	*	*met(c)	*	*met(c)	*	*met(c)	*	*met(c)	*met(c)
!	!	!LO:TX:i:b:t=Labora.	!LO:TX:i:b:t=Labora.	!	!	!	!	!	!	!	!	!	!
!	!	!	!	!	!	!	!	!LO:TX:a:i:t=Allegro.	!	!	!	!	!
4D/	.	16d/LL	16d/LL	1r	.	1r	.	1r	.	1r	.	16d/LL	16d/LL
.	.	16e/	16e/	.	.	.	.	.	.	.	.	16d/	16d/
.	.	16f#/	16f#/	.	.	.	.	.	.	.	.	16d/	16d/
.	.	16g/JJ	16g/JJ	.	.	.	.	.	.	.	.	16d/JJ	16d/JJ
4r	.	16a\LL	16a\LL	.	.	.	.	.	.	.	.	16a/LL	16a/LL
.	.	16b\	16b\	.	.	.	.	.	.	.	.	16a/	16a/
.	.	16cc#\	16cc#\	.	.	.	.	.	.	.	.	16a/	16a/
!	!	!	!	!	!	!	!	!LO:TX:b:t=1.	!	!	!	!	!
.	.	16a\JJ	16a\JJ	.	.	.	.	.	.	.	.	16a/JJ	16a/JJ
!	!	!LO:TX:a:t=P:problem:mixed beam	!LO:TX:a:t=P:problem:mixed beam	!	!	!	!	!	!	!	!	!LO:TX:a:t=P:problem:mixed beam	!LO:TX:a:t=P:problem:mixed beam
16D\LL	.	8dd\L	8dd\L	.	.	.	.	.	.	.	.	8dd\L	8dd\L
16E\	.	.	.	.	.	.	.	.	.	.	.	.	.
16F#\	.	8d/J	8d/J	.	.	.	.	.	.	.	.	8d/J	8d/J
16G\JJ	.	.	.	.	.	.	.	.	.	.	.	.	.
16A\LL	.	4r	4r	.	.	.	.	.	.	.	.	4r	4r
16B\	.	.	.	.	.	.	.	.	.	.	.	.	.
16c#\	.	.	.	.	.	.	.	.	.	.	.	.	.
16A\JJ	.	.	.	.	.	.	.	.	.	.	.	.	.
=91	=91	=91	=91	=91-	=91	=91-	=91	=91-	=91	=91-	=91	=91	=91
!LO:TX:a:t=P:problem:mixed beam	!	!	!	!	!	!	!	!	!	!	!	!	!
8d\L	.	4d/	4d/	8r	.	8r	.	8r	.	8r	.	4d/	4d/
8D/J	.	.	.	8d\	La-	8f#\	La-	8a\	La-	8ff#\	La-	.	.
4r	.	4r	4r	8d\	-bo-	8d\	-bo-	8a\	-bo-	8ff#\	-bo-	4r	4r
.	.	.	.	8D/	-ra	8f#\	-ra	8a\	-ra	8ff#\	-ra	.	.
!	!	!	!	!	!	!	!	!	!	!	!	!	!LO:N:vis=4.
4D/	.	16d/LL	16d/LL	2r	.	2r	.	2r	.	2r	.	4d/	4d/
.	.	16e/	16e/	.	.	.	.	.	.	.	.	.	.
.	.	16f#/	16f#/	.	.	.	.	.	.	.	.	.	.
.	.	16g/JJ	16g/JJ	.	.	.	.	.	.	.	.	.	.
!	!	!	!LO:LB:g=original	!	!	!	!	!	!	!	!	!	!
4r	.	16a\LL	16a\LL	.	.	.	.	.	.	.	.	4a/	4a/
.	.	16b\	16b\	.	.	.	.	.	.	.	.	.	.
.	.	16cc#\	16cc#\	.	.	.	.	.	.	.	.	.	.
.	.	16a\JJ	16a\JJ	.	.	.	.	.	.	.	.	.	.
!	!	!LO:LB:g=original	!	!	!	!	!	!	!	!	!	!	!
=92	=92	=92	=92	=92	=92	=92	=92	=92	=92	=92	=92	=92	=92
!	!	!LO:TX:a:t=P:problem:mixed beam	!LO:TX:a:t=P:problem:mixed beam	!	!	!	!	!	!	!	!	!	!
16d\LL	.	8dd\L	8dd\L	2r	.	2r	.	2r	.	2r	.	4dd\	4ff#\
16A\	.	.	.	.	.	.	.	.	.	.	.	.	.
16B\	.	8d/J	8d/J	.	.	.	.	.	.	.	.	.	.
16c#\JJ	.	.	.	.	.	.	.	.	.	.	.	.	.
16d\LL	.	4r	4r	.	.	.	.	.	.	.	.	4r	4r
16A\	.	.	.	.	.	.	.	.	.	.	.	.	.
16B\	.	.	.	.	.	.	.	.	.	.	.	.	.
16c#\JJ	.	.	.	.	.	.	.	.	.	.	.	.	.
*	*	*	*	*	*ij	*	*	*	*	*	*	*	*
4D/	.	4d/	4d/	8d\	La-	8r	.	8r	.	8r	.	4dd\	4ff#\
*	*	*	*	*	*	*	*ij	*	*	*	*ij	*	*
.	.	.	.	8d\	-bo-	8f#\	La-	8a\	La-	8ff#\	La-	.	.
4r	.	4r	4r	8D/	-ra	8d\	-bo-	8a\	-bo-	8ff#\	-bo-	4r	4r
.	.	.	.	8r	.	8f#\	-ra	8a\	-ra	8ff#\	-ra	.	.
*	*	*	*	*	*Xij	*	*Xij	*	*	*	*Xij	*	*
=93	=93	=93	=93	=93	=93	=93	=93	=93	=93	=93	=93	=93	=93
4D/	.	16dd\LL	16ff#\LL	1r	.	1r	.	1r	.	1r	.	4dd\	4ff#\
.	.	16a\	16aa\	.	.	.	.	.	.	.	.	.	.
.	.	16b\	16gg\	.	.	.	.	.	.	.	.	.	.
.	.	16cc#\JJ	16ee\JJ	.	.	.	.	.	.	.	.	.	.
4r	.	16dd\LL	16ff#\LL	.	.	.	.	.	.	.	.	4r	4r
.	.	16b\	16gg\	.	.	.	.	.	.	.	.	.	.
.	.	16dd\	16ff#\	.	.	.	.	.	.	.	.	.	.
.	.	16cc#\JJ	16ee\JJ	.	.	.	.	.	.	.	.	.	.
4D\	.	16dd\LL	16ff#\LL	.	.	.	.	.	.	.	.	4dd\	4ff#\
.	.	16cc#\	16ee\	.	.	.	.	.	.	.	.	.	.
.	.	16ee\	16gg\	.	.	.	.	.	.	.	.	.	.
.	.	16dd\JJ	16ff#\JJ	.	.	.	.	.	.	.	.	.	.
4r	.	16ff#\LL	16aa\LL	.	.	.	.	.	.	.	.	4r	4r
.	.	16cc#\	16ee\	.	.	.	.	.	.	.	.	.	.
.	.	16dd\	16ff#\	.	.	.	.	.	.	.	.	.	.
.	.	16cc#\JJ	16ee\JJ	.	.	.	.	.	.	.	.	.	.
=94	=94	=94	=94	=94-	=94	=94-	=94	=94-	=94	=94-	=94	=94	=94
4D/	.	16dd\LL	16ff#\LL	2r	.	2r	.	2r	.	2r	.	4dd\	4ff#\
.	.	16cc#\	16ee\	.	.	.	.	.	.	.	.	.	.
.	.	16dd\	16ff#\	.	.	.	.	.	.	.	.	.	.
.	.	16ee\JJ	16gg\JJ	.	.	.	.	.	.	.	.	.	.
4r	.	16ff#\LL	16aa\LL	.	.	.	.	.	.	.	.	4r	4r
.	.	16cc#\	16ee\	.	.	.	.	.	.	.	.	.	.
.	.	16dd\	16ff#\	.	.	.	.	.	.	.	.	.	.
.	.	16cc#\JJ	16ee\JJ	.	.	.	.	.	.	.	.	.	.
8r	.	8a\L	8ff#\L	4r	.	4r	.	4r	.	4r	.	8r	8r
8A\L	.	8cc#\	8ee\	.	.	.	.	.	.	.	.	8a/	8ee\L
8d\	.	8a\	8ff#\	8r	.	8r	.	8r	.	8r	.	8dd\	8ff#\
8c#\J	.	8cc#\J	8ee\J	8A\	ut	8c#\	ut	8a\	ut	8ee\	ut	8a/	8ee\J
=95	=95	=95	=95	=95	=95	=95	=95	=95	=95	=95	=95	=95	=95
8d\L	.	8dd\L	8ff#\L	8d\	bo-	8d\	bo-	8a\	bo-	8ff#\	bo-	8dd\L	8ff#\L
8A\J	.	8cc#\J	8ee\J	8c#\	-nus	8e\	-nus	8a\	-nus	8ee\	-nus	8a\	8ee\
8r	.	8r	8r	8d\	mi-	8f#\	mi-	8a\	mi-	8ff#\	mil-	8dd\	8ff#\
8A\	.	8cc#\	8ee\	8A\	-les	8c#\	-les	8a\	-les	8ee\	-les	8a\J	8ee\J
8d\L	.	8a\L	8ff#\L	8r	.	8r	.	8r	.	8r	.	8r	8r
*	*	*	*	*	*ij	*	*	*	*	*	*	*	*
!	!	!	!	!LO:LB:g=original	!	!	!	!	!	!	!	!	!
8c#\	.	8a\	8ee\	8A\	ut	8c#\	ut	8a\	ut	8ee\	ut	8a\L	8ee\L
8d\	.	8a\	8ff#\	8d\	bo-	8d\	bo-	8a\	bo-	8ff#\	bo-	8dd\	8ff#\
8A\J	.	8cc#\J	8ee\J	8c#\	-nus	8e\	-nus	8a\	-nus	8ee\	-nus	8a\J	8ee\J
!	!	!	!	!	!	!LO:LB:g=original	!	!	!	!	!	!	!
!LO:LB:g=original	!	!	!LO:LB:g=original	!	!	!	!	!	!	!	!	!LO:LB:g=original	!
!	!	!	!	!	!	!	!	!	!	!LO:LB:g=original	!	!	!
=96	=96	=96	=96	=96	=96	=96	=96	=96	=96	=96	=96	=96	=96
!	!	!	!	!	!	!	!	!	!	!	!	!LO:TX:a:t=P:problem:w tym takcie błędy rytmiczne	!
8r	.	8r	8r	8d\	mi-	8f#\	mil-	8a\	mil-	8ff#\	mi-	8dd\L	8ff#\L
8A\	.	8cc#\L	8ee\L	8A\	-les	8c#\	-les	8a\	-les	8ee\	-les	8a\J	8ee\J
!	!	!	!	!	!	!	!	!LO:LB:g=original	!	!	!	!	!
!	!	!	!	!	!	!	!	!	!	!	!	!	!LO:LB:g=original
8d\L	.	8a\	8ff#\	8r	.	8r	.	8r	.	8r	.	4r	4r
*	*	*	*	*	*Xij	*	*ij	*	*	*	*	*	*
8c#\	.	8a\J	8ee\J	8A\	ut	8c#\	ut	8a\	.	8ee\	ut	.	.
8d\	.	8a\L	8ff#\L	8d\	bo-	8d\	bo-	8a\	ut	8ff#\	bo-	8a/	8ee\L
!	!	!	!	!	!	!	!	!	!	!	!	!LO:N:vis=8	!
8A\J	.	8cc#\	8ee\	8c#\	-nus	8e\	-nus	8a\	.	8ee\	-nus	16dd\L	16ff#\L
!	!	!	!	!	!	!	!	!	!	!	!	!LO:N:vis=8	!
.	.	.	.	.	.	.	.	.	.	.	.	16b\J	16ee\JJ
!LO:TX:a:t=P:problem:mixed beam	!	!	!	!	!	!	!	!	!	!	!	!	!
8d\L	.	8a\	8ff#\	8d\	mi-	8f#\	mil-	8a\	bo-	8ff#\	mi-	8ff#\L	8aa\L
!	!	!	!	!	!	!	!	!	!	!	!	!LO:N:vis=8	!
8D/J	.	8a\J	8ff#\J	8D/	-les	8d\	-les	8a\	-nus	8ff#\	-les	16ff#\L	16gg\L
*	*	*	*	*	*	*	*Xij	*	*	*	*	*	*
!	!	!	!	!	!	!	!	!	!	!	!	!LO:N:vis=8	!
.	.	.	.	.	.	.	.	.	.	.	.	16dd\JJ	16ff#\JJ
=97	=97	=97	=97	=97	=97	=97	=97	=97	=97	=97	=97	=97	=97
!LO:TX:a:t=P:problem:mixed beam	!	!	!	!LO:TX:a:t=P:problem:mixed beam	!	!	!	!	!	!	!	!	!
8A\L	X 4	8.cc#\L	8.ee\L	8.A\L	Chri-	8.c#\L	Chri-	8.a\L	mi-	4ee\	Chri-	8.a/L	8.ff#\L
8AA/J	X 3	.	.	.	.	.	.	.	.	.	.	.	.
.	.	16cc#\Jk	16ee\Jk	16AA/Jk	-sti	16c#\Jk	-sti	16a\Jk	-les	.	.	16g/Jk	16dd\Jk
4D\	.	4a/	4ff#\	4D/	.	4c#\	.	4a\	Christi	4ff#\	-sti	4f#/	16dd\LL
.	.	.	.	.	.	.	.	.	.	.	.	.	16ff#\
.	.	.	.	.	.	.	.	.	.	.	.	.	16ff#\
.	.	.	.	.	.	.	.	.	.	.	.	.	16ff#\JJ
4r	.	4d/	4d/	2r	.	2r	.	2r	.	4r	.	16dd\LL	16ff#\LL
.	.	.	.	.	.	.	.	.	.	.	.	16ff#\	16aa\
.	.	.	.	.	.	.	.	.	.	.	.	16ee\	16gg\
.	.	.	.	.	.	.	.	.	.	.	.	16ff#\JJ	16aa\JJ
!	!	!	!	!	!	!	!	!	!	!LO:N:vis=2	!	!	!
4D/	.	4r	4r	.	.	.	.	.	.	4r	.	16ff#\LL	16aa\LL
.	.	.	.	.	.	.	.	.	.	.	.	16aa\	16ff#\
.	.	.	.	.	.	.	.	.	.	.	.	16aa\	16ee\
.	.	.	.	.	.	.	.	.	.	.	.	16aa\JJ	16ff#\JJ
!	!	!LO:LB:g=original	!	!	!	!	!	!	!	!	!	!	!
=98	=98	=98	=98	=98	=98	=98	=98	=98	=98	=98	=98	=98	=98
4D\	.	4r	4r	1r	.	1r	.	1r	.	1r	.	8ff#\L	8aa\L
.	.	.	.	.	.	.	.	.	.	.	.	16ee\L	16gg\L
.	.	.	.	.	.	.	.	.	.	.	.	16dd\JJ	16ff#\JJ
4r	.	8r	8r	.	.	.	.	.	.	.	.	8a/L	8ee\L
.	.	8d/	8d/	.	.	.	.	.	.	.	.	8dd/J	8ff#\J
2r	.	8G/L	8A/L	.	.	.	.	.	.	.	.	8ee\L	8gg\L
.	.	8A/J	8A/J	.	.	.	.	.	.	.	.	16ff#\L	16aa\L
.	.	.	.	.	.	.	.	.	.	.	.	16ee\JJ	16gg\JJ
.	.	4d/	4d/	.	.	.	.	.	.	.	.	8dd\L	8ff#\L
.	.	.	.	.	.	.	.	.	.	.	.	8dd\J	8ff#\J
=99	=99	=99	=99	=99-	=99	=99-	=99	=99-	=99	=99-	=99	=99	=99
4D/	.	16d/LL	16d/LL	4r	.	4r	.	4r	.	4r	.	4dd\	4ff#\
.	.	16e/	16e/	.	.	.	.	.	.	.	.	.	.
.	.	16f#/	16f#/	.	.	.	.	.	.	.	.	.	.
.	.	16g/JJ	16g/JJ	.	.	.	.	.	.	.	.	.	.
8r	.	16a\LL	16a\LL	8r	.	8r	.	8r	.	8r	.	8r	8r
.	.	16b\	16b\	.	.	.	.	.	.	.	.	.	.
!LO:TX:a:t=P:problem:mixed beam	!	!	!	!	!	!	!	!	!	!	!	!	!
8A\L	.	16cc#\	16cc#\	8A\	ut	8c#\	ut	8a\	ut	8ee\	ut	8a/	8ee\
.	.	16a\JJ	16a\JJ	.	.	.	.	.	.	.	.	.	.
!	!	!LO:TX:a:t=P:problem:mixed beam	!LO:TX:a:t=P:problem:mixed beam	!	!	!	!	!	!	!	!	!	!
8d\	.	8dd\L	8dd\L	8d\	milles	8d\	mil-	8a\	milles	8ff#\	milles	8ff#\L	8aa\L
8D/J	.	8d/J	8d/J	8D/	.	8f#\	-les	8a\	.	8ff#\	.	16ee\L	16gg\L
.	.	.	.	.	.	.	.	.	.	.	.	16dd\JJ	16ff#\JJ
!LO:TX:a:t=P:problem:mixed beam	!	!	!	!LO:TX:a:t=P:problem:mixed beam	!	!	!	!	!	!	!	!LO:LB:g=original	!
8A\L	.	4r	4r	8.A\L	Chri-	8.c#\L	Chri-	8.a\L	Chri-	8.ee\L	Chri-	8.a/L	8.ee\L
.	x 4	.	.	.	.	.	.	.	.	.	.	.	.
8AA/J	X 3	.	.	.	.	.	.	.	.	.	.	.	.
.	.	.	.	16AA/Jk	.	16c#\Jk	.	16g\Jk	.	16ee\Jk	.	16g/Jk	16dd\Jk
=100	=100	=100	=100	=100	=100	=100	=100	=100	=100	=100	=100	=100	=100
!	!	!	!	!	!	!	!	!	!	!	!	!	!LO:TX:b:t=J B.
16D\LL	.	16d/LL	16d/LL	4D/	-sti.	4d\	-sti	4a\	-sti	4ff#\	-sti.	4f#/	4dd\
16E\	.	16e/	16e/	.	.	.	.	.	.	.	.	.	.
16F#\	.	16f#/	16f#/	.	.	.	.	.	.	.	.	.	.
!LO:TX:b:t=J. B.	!	!	!	!	!	!	!	!	!	!	!	!	!
16G\JJ	.	16g/JJ	16g/JJ	.	.	.	.	.	.	.	.	.	.
16A\LL	.	16a\LL	16a\LL	4r	.	4r	.	4r	.	4r	.	4r	4r
16B\	.	16b\	16b\	.	.	.	.	.	.	.	.	.	.
16c#\	.	16cc#\	16cc#\	.	.	.	.	.	.	.	.	.	.
16A\JJ	.	16a\JJ	16a\JJ	.	.	.	.	.	.	.	.	.	.
!LO:TX:a:t=P:problem:mixed beam	!	!LO:TX:a:t=P:problem:mixed beam	!LO:TX:a:t=P:problem:mixed beam	!	!	!	!	!	!	!	!	!	!
8d\L	.	8dd\L	8dd\L	2r	.	2r	.	2r	.	2r	.	8ff#\L	8aa\L
8D/J	.	8d/J	8d/J	.	.	.	.	.	.	.	.	8dd\J	8ff#\J
4r	.	4r	4r	.	.	.	.	.	.	.	.	4r	4r
!	!	!	!LO:TX:b:t=I J B.	!	!	!	!	!	!	!	!	!	!
==	==	==	==;	==	==	==	==	==	==	==	==	==;;	==
*-	*-	*-	*-	*-	*-	*-	*-	*-	*-	*-	*-	*-	*-
!!!system-decoration: [g1][g2][g3]s9
!!!RDF**kern: > = above
!!!RDF**kern: < = below
!!!EED: Antoni Szymański
!!!EST: 2020-10-29
!!!ENC: Andrzej Gręziak
!!!END: 2020-04-21
